(G-CODE GENERATED BY FLATCAM v8.994 - www.flatcam.org - Version Date: 2020/11/7)

(Name: BLDC.GKO_cutout_cnc)
(Type: G-code from Geometry)
(Units: MM)

(Created on Friday, 24 April 2026 at 12:26)


G01 F120.00

M5
G00 Z15.0000
G00 X0.0000 Y0.0000
T1
M6    
(MSG, Change to Tool Dia = 0.2128)
M0
G00 Z15.0000

M03
G01 F120.00
G00 X53.0500 Y-0.2064
G01 F60.00
G01 Z-0.1000
G01 F120.00
G01 X0.0000 Y-0.2064
G01 X-0.0202 Y-0.2054
G01 X-0.0403 Y-0.2024
G01 X-0.0599 Y-0.1975
G01 X-0.0790 Y-0.1907
G01 X-0.0973 Y-0.1820
G01 X-0.1147 Y-0.1716
G01 X-0.1309 Y-0.1595
G01 X-0.1459 Y-0.1459
G01 X-0.1595 Y-0.1309
G01 X-0.1716 Y-0.1147
G01 X-0.1820 Y-0.0973
G01 X-0.1907 Y-0.0790
G01 X-0.1975 Y-0.0599
G01 X-0.2024 Y-0.0403
G01 X-0.2054 Y-0.0202
G01 X-0.2064 Y0.0000
G01 X-0.2064 Y70.0500
G01 X-0.2054 Y70.0703
G01 X-0.2024 Y70.0903
G01 X-0.1975 Y70.1099
G01 X-0.1907 Y70.1290
G01 X-0.1820 Y70.1473
G01 X-0.1716 Y70.1647
G01 X-0.1595 Y70.1810
G01 X-0.1459 Y70.1960
G01 X-0.1309 Y70.2096
G01 X-0.1147 Y70.2216
G01 X-0.0973 Y70.2321
G01 X-0.0790 Y70.2407
G01 X-0.0599 Y70.2475
G01 X-0.0403 Y70.2525
G01 X-0.0202 Y70.2554
G01 X0.0000 Y70.2564
G01 X53.0500 Y70.2564
G01 X53.0703 Y70.2554
G01 X53.0903 Y70.2525
G01 X53.1099 Y70.2475
G01 X53.1290 Y70.2407
G01 X53.1473 Y70.2321
G01 X53.1647 Y70.2216
G01 X53.1810 Y70.2096
G01 X53.1960 Y70.1960
G01 X53.2096 Y70.1810
G01 X53.2216 Y70.1647
G01 X53.2321 Y70.1473
G01 X53.2407 Y70.1290
G01 X53.2475 Y70.1099
G01 X53.2525 Y70.0903
G01 X53.2554 Y70.0703
G01 X53.2564 Y70.0500
G01 X53.2564 Y0.0000
G01 X53.2554 Y-0.0202
G01 X53.2525 Y-0.0403
G01 X53.2475 Y-0.0599
G01 X53.2407 Y-0.0790
G01 X53.2321 Y-0.0973
G01 X53.2216 Y-0.1147
G01 X53.2096 Y-0.1309
G01 X53.1960 Y-0.1459
G01 X53.1810 Y-0.1595
G01 X53.1647 Y-0.1716
G01 X53.1473 Y-0.1820
G01 X53.1290 Y-0.1907
G01 X53.1099 Y-0.1975
G01 X53.0903 Y-0.2024
G01 X53.0703 Y-0.2054
G01 X53.0500 Y-0.2064
G00 Z2.0000
M05
G00 Z2.0000
G00 Z15.00
G00 X0.0 Y0.0


