(G-CODE GENERATED BY FLATCAM v8.994 - www.flatcam.org - Version Date: 2020/11/7)

(Name: BLDC.GBL_ncc_cnc)
(Type: G-code from Geometry)
(Units: MM)

(Created on Friday, 24 April 2026 at 12:16)


G01 F120.00

M5
G00 Z15.0000
G00 X0.0000 Y0.0000
T1
M6    
(MSG, Change to Tool Dia = 0.2128)
M0
G00 Z15.0000

M03
G01 F120.00
G00 X0.1319 Y6.3783
G01 F60.00
G01 Z-0.0999
G01 F120.00
G01 X0.1319 Y6.6701
G01 X0.1419 Y6.6689
G01 X0.1495 Y6.6686
G01 X6.4035 Y6.6686
G01 X6.4162 Y6.6697
G01 X6.4286 Y6.6722
G01 X6.4980 Y6.6926
G01 X6.5055 Y6.6951
G01 X6.5152 Y6.6993
G01 X6.5245 Y6.7045
G01 X6.5352 Y6.7122
G01 X6.5431 Y6.7192
G01 X6.5485 Y6.7250
G01 X6.5959 Y6.7799
G01 X6.6037 Y6.7906
G01 X6.6090 Y6.7999
G01 X6.6141 Y6.8121
G01 X6.6178 Y6.8249
G01 X6.6295 Y6.8789
G01 X6.6309 Y6.8889
G01 X6.6314 Y6.8990
G01 X6.6314 Y11.4035
G01 X6.6303 Y11.4162
G01 X6.6290 Y11.4236
G01 X6.6271 Y11.4310
G01 X6.6066 Y11.5006
G01 X6.6018 Y11.5129
G01 X6.5969 Y11.5222
G01 X6.5926 Y11.5289
G01 X6.5879 Y11.5352
G01 X6.5789 Y11.5449
G01 X6.5181 Y11.5976
G01 X6.5116 Y11.6023
G01 X6.5025 Y11.6077
G01 X6.4929 Y11.6123
G01 X6.4829 Y11.6158
G01 X6.4751 Y11.6178
G01 X6.4211 Y11.6295
G01 X6.4111 Y11.6309
G01 X6.4010 Y11.6314
G01 X0.1495 Y11.6314
G01 X0.1419 Y11.6311
G01 X0.1319 Y11.6299
G01 X0.1319 Y11.9256
G01 X0.1419 Y11.9244
G01 X0.1495 Y11.9241
G01 X6.3953 Y11.9241
G01 X6.4914 Y11.9138
G01 X6.5318 Y11.9050
G01 X6.6162 Y11.8769
G01 X6.7196 Y11.8104
G01 X6.7609 Y11.7747
G01 X6.8402 Y11.6832
G01 X6.8904 Y11.5732
G01 X6.9058 Y11.5208
G01 X6.9241 Y11.3934
G01 X6.9241 Y6.9047
G01 X6.9138 Y6.8086
G01 X6.9050 Y6.7682
G01 X6.8769 Y6.6838
G01 X6.8503 Y6.6423
G01 X6.8454 Y6.6335
G01 X6.8415 Y6.6241
G01 X6.8391 Y6.6169
G01 X6.8180 Y6.5449
G01 X6.8158 Y6.5321
G01 X6.8151 Y6.5192
G01 X6.8156 Y6.5089
G01 X6.8178 Y6.4961
G01 X6.8336 Y6.4341
G01 X6.8367 Y6.4239
G01 X6.8397 Y6.4165
G01 X6.8435 Y6.4090
G01 X6.8986 Y6.2886
G01 X6.8998 Y6.2845
G01 X6.9136 Y6.2215
G01 X6.9175 Y6.1941
G01 X6.9222 Y6.1297
G01 X6.9262 Y0.1699
G01 X6.9256 Y0.1566
G01 X6.9263 Y0.1440
G01 X6.9284 Y0.1319
G01 X6.6304 Y0.1319
G01 X6.6332 Y0.1583
G01 X6.6335 Y0.1673
G01 X6.6294 Y6.1358
G01 X6.6284 Y6.1484
G01 X6.6220 Y6.1908
G01 X6.6149 Y6.2156
G01 X6.6104 Y6.2274
G01 X6.6044 Y6.2386
G01 X6.5639 Y6.3016
G01 X6.5562 Y6.3116
G01 X6.5473 Y6.3207
G01 X6.5378 Y6.3285
G01 X6.5267 Y6.3357
G01 X6.4672 Y6.3657
G01 X6.4575 Y6.3699
G01 X6.4448 Y6.3739
G01 X6.4291 Y6.3772
G01 X6.3972 Y6.3807
G01 X6.3858 Y6.3814
G01 X0.1679 Y6.3824
G01 X0.1552 Y6.3816
G01 X0.1319 Y6.3783
G01 X0.2596 Y6.5100
G01 X0.2596 Y6.5409
G01 X6.4010 Y6.5409
G01 X6.4192 Y6.5416
G01 X6.4383 Y6.5439
G01 X6.4493 Y6.5460
G01 X6.4601 Y6.5485
G01 X6.5355 Y6.5706
G01 X6.5466 Y6.5742
G01 X6.5574 Y6.5784
G01 X6.5680 Y6.5831
G01 X6.5784 Y6.5883
G01 X6.5885 Y6.5940
G01 X6.5984 Y6.6002
G01 X6.6079 Y6.6070
G01 X6.6170 Y6.6141
G01 X6.6258 Y6.6217
G01 X6.6360 Y6.6317
G01 X6.6450 Y6.6414
G01 X6.6907 Y6.6942
G01 X6.6991 Y6.7045
G01 X6.7060 Y6.7139
G01 X6.7139 Y6.7260
G01 X6.7212 Y6.7389
G01 X6.7263 Y6.7494
G01 X6.7310 Y6.7602
G01 X6.7359 Y6.7737
G01 X6.7393 Y6.7848
G01 X6.7422 Y6.7962
G01 X6.7556 Y6.8587
G01 X6.7582 Y6.8783
G01 X6.7591 Y6.8950
G01 X6.7590 Y11.4081
G01 X6.7582 Y11.4218
G01 X6.7565 Y11.4358
G01 X6.7541 Y11.4493
G01 X6.7500 Y11.4655
G01 X6.7269 Y11.5436
G01 X6.7229 Y11.5545
G01 X6.7183 Y11.5652
G01 X6.7089 Y11.5835
G01 X6.7015 Y11.5957
G01 X6.6931 Y11.6079
G01 X6.6842 Y11.6190
G01 X6.6725 Y11.6319
G01 X6.6586 Y11.6450
G01 X6.6046 Y11.6917
G01 X6.5934 Y11.7007
G01 X6.5763 Y11.7125
G01 X6.5587 Y11.7224
G01 X6.5399 Y11.7310
G01 X6.5208 Y11.7377
G01 X6.5038 Y11.7422
G01 X6.4438 Y11.7551
G01 X6.4248 Y11.7579
G01 X6.4051 Y11.7591
G01 X0.2596 Y11.7591
G01 X0.2596 Y11.7964
G01 X6.3885 Y11.7964
G01 X6.4710 Y11.7876
G01 X6.4980 Y11.7817
G01 X6.5607 Y11.7608
G01 X6.6429 Y11.7080
G01 X6.6704 Y11.6841
G01 X6.7316 Y11.6135
G01 X6.7705 Y11.5285
G01 X6.7807 Y11.4935
G01 X6.7964 Y11.3843
G01 X6.7964 Y6.9116
G01 X6.7876 Y6.8291
G01 X6.7817 Y6.8021
G01 X6.7608 Y6.7393
G01 X6.7421 Y6.7101
G01 X6.7350 Y6.6978
G01 X6.7266 Y6.6805
G01 X6.7194 Y6.6621
G01 X6.6969 Y6.5859
G01 X6.6930 Y6.5708
G01 X6.6908 Y6.5596
G01 X6.6888 Y6.5453
G01 X6.6878 Y6.5339
G01 X6.6874 Y6.5199
G01 X6.6877 Y6.5085
G01 X6.6885 Y6.4972
G01 X6.6899 Y6.4858
G01 X6.6918 Y6.4746
G01 X6.6947 Y6.4620
G01 X6.7099 Y6.4025
G01 X6.7143 Y6.3872
G01 X6.7183 Y6.3761
G01 X6.7228 Y6.3653
G01 X6.7291 Y6.3521
G01 X6.7774 Y6.2466
G01 X6.7879 Y6.1987
G01 X6.7905 Y6.1803
G01 X6.7945 Y6.1250
G01 X6.7985 Y0.2596
G01 X6.7611 Y0.2596
G01 X6.7570 Y6.1405
G01 X6.7564 Y6.1516
G01 X6.7553 Y6.1627
G01 X6.7495 Y6.2031
G01 X6.7470 Y6.2166
G01 X6.7437 Y6.2303
G01 X6.7370 Y6.2531
G01 X6.7323 Y6.2665
G01 X6.7281 Y6.2768
G01 X6.7223 Y6.2892
G01 X6.7142 Y6.3038
G01 X6.6704 Y6.3719
G01 X6.6640 Y6.3810
G01 X6.6552 Y6.3922
G01 X6.6479 Y6.4006
G01 X6.6383 Y6.4104
G01 X6.6276 Y6.4201
G01 X6.6173 Y6.4285
G01 X6.6057 Y6.4369
G01 X6.5931 Y6.4448
G01 X6.5805 Y6.4517
G01 X6.5243 Y6.4799
G01 X6.5069 Y6.4877
G01 X6.4934 Y6.4926
G01 X6.4822 Y6.4960
G01 X6.4709 Y6.4989
G01 X6.4540 Y6.5024
G01 X6.4416 Y6.5043
G01 X6.4108 Y6.5077
G01 X6.3904 Y6.5090
G01 X0.2596 Y6.5100
G00 Z2.0000
G00 X12.3147 Y9.5179
G01 F60.00
G01 Z-0.0999
G01 F120.00
G01 X12.3059 Y9.4321
G01 X12.3059 Y8.4429
G01 X12.3147 Y8.3571
G01 X12.3623 Y8.2134
G01 X12.4026 Y8.1479
G01 X12.4069 Y8.1392
G01 X12.4234 Y8.1011
G01 X12.4256 Y8.0941
G01 X12.4364 Y8.0551
G01 X12.4427 Y8.0116
G01 X12.4434 Y7.9993
G01 X12.4434 Y7.0143
G01 X12.4730 Y6.8657
G01 X12.5309 Y6.7257
G01 X12.6151 Y6.5997
G01 X12.7360 Y6.4788
G01 X12.7414 Y6.4730
G01 X12.7464 Y6.4667
G01 X12.7523 Y6.4579
G01 X12.7849 Y6.4029
G01 X12.7906 Y6.3910
G01 X12.7941 Y6.3810
G01 X12.8035 Y6.3482
G01 X12.8098 Y6.3058
G01 X12.8108 Y6.2957
G01 X12.8109 Y6.0053
G01 X12.8153 Y5.9647
G01 X12.8556 Y5.8567
G01 X12.9235 Y5.7660
G01 X13.0142 Y5.6981
G01 X13.1222 Y5.6578
G01 X13.1628 Y5.6534
G01 X13.8400 Y5.6534
G01 X13.8486 Y5.6528
G01 X13.8777 Y5.6496
G01 X13.8937 Y5.6465
G01 X13.9065 Y5.6429
G01 X13.9187 Y5.6377
G01 X13.9760 Y5.6090
G01 X13.9851 Y5.6035
G01 X13.9936 Y5.5972
G01 X13.9996 Y5.5919
G01 X14.0053 Y5.5862
G01 X14.0138 Y5.5758
G01 X14.0559 Y5.5105
G01 X14.0608 Y5.5016
G01 X14.0648 Y5.4923
G01 X14.0729 Y5.4652
G01 X14.0748 Y5.4553
G01 X14.0798 Y5.4203
G01 X14.0809 Y5.4077
G01 X14.0809 Y4.2149
G01 X14.0936 Y4.1027
G01 X14.1434 Y3.9604
G01 X14.2236 Y3.8327
G01 X14.3302 Y3.7261
G01 X14.4579 Y3.6459
G01 X14.6002 Y3.5961
G01 X14.7010 Y3.5847
G01 X14.7094 Y3.5834
G01 X15.3376 Y3.5834
G01 X15.4498 Y3.5961
G01 X15.5922 Y3.6459
G01 X15.7198 Y3.7261
G01 X15.8264 Y3.8327
G01 X15.9152 Y3.9739
G01 X15.9325 Y3.9971
G01 X15.9511 Y4.0182
G01 X15.9591 Y4.0256
G01 X15.9677 Y4.0321
G01 X16.0280 Y4.0704
G01 X16.0349 Y4.0744
G01 X16.0446 Y4.0790
G01 X16.0522 Y4.0818
G01 X16.0731 Y4.0879
G01 X16.0855 Y4.0905
G01 X16.1230 Y4.0958
G01 X16.1356 Y4.0966
G01 X17.5867 Y4.0966
G01 X17.7111 Y4.1213
G01 X17.8283 Y4.1699
G01 X17.9338 Y4.2404
G01 X19.2338 Y5.5404
G01 X19.2419 Y5.5473
G01 X19.2506 Y5.5534
G01 X19.3056 Y5.5861
G01 X19.3126 Y5.5899
G01 X19.3222 Y5.5941
G01 X19.3297 Y5.5966
G01 X19.3576 Y5.6048
G01 X19.3700 Y5.6073
G01 X19.4075 Y5.6127
G01 X19.4176 Y5.6134
G01 X19.4467 Y5.6133
G01 X19.4693 Y5.6117
G01 X19.4784 Y5.6105
G01 X19.4907 Y5.6076
G01 X19.5244 Y5.5977
G01 X19.5346 Y5.5942
G01 X19.5466 Y5.5884
G01 X19.5535 Y5.5842
G01 X19.5611 Y5.5786
G01 X19.5735 Y5.5722
G01 X19.5866 Y5.5630
G01 X19.5951 Y5.5559
G01 X19.6008 Y5.5506
G01 X19.6078 Y5.5428
G01 X19.6129 Y5.5361
G01 X19.6191 Y5.5298
G01 X19.6282 Y5.5191
G01 X19.6361 Y5.5086
G01 X19.6402 Y5.5018
G01 X19.6438 Y5.4948
G01 X19.6482 Y5.4889
G01 X19.6524 Y5.4822
G01 X19.6595 Y5.4678
G01 X19.6652 Y5.4528
G01 X19.6682 Y5.4410
G01 X19.6729 Y5.4267
G01 X19.6748 Y5.4193
G01 X19.6784 Y5.3982
G01 X19.6807 Y5.3721
G01 X19.6809 Y5.3652
G01 X19.6809 Y4.1749
G01 X19.6936 Y4.0627
G01 X19.7434 Y3.9204
G01 X19.8236 Y3.7927
G01 X19.9302 Y3.6861
G01 X20.0579 Y3.6059
G01 X20.2002 Y3.5561
G01 X20.3010 Y3.5447
G01 X20.3094 Y3.5434
G01 X20.9376 Y3.5434
G01 X21.0498 Y3.5561
G01 X21.1922 Y3.6059
G01 X21.3198 Y3.6861
G01 X21.4264 Y3.7927
G01 X21.4671 Y3.8571
G01 X21.4893 Y3.8853
G01 X21.4952 Y3.8917
G01 X21.5049 Y3.9014
G01 X21.5111 Y3.9066
G01 X21.5198 Y3.9127
G01 X21.5800 Y3.9485
G01 X21.5871 Y3.9520
G01 X21.5971 Y3.9558
G01 X21.6265 Y3.9641
G01 X21.6714 Y3.9708
G01 X21.6840 Y3.9716
G01 X22.3765 Y3.9716
G01 X22.5251 Y4.0012
G01 X22.6650 Y4.0591
G01 X22.7910 Y4.1433
G01 X23.6560 Y5.0083
G01 X23.6660 Y5.0171
G01 X23.6747 Y5.0232
G01 X23.7297 Y5.0559
G01 X23.7390 Y5.0608
G01 X23.7513 Y5.0656
G01 X23.7866 Y5.0758
G01 X23.8290 Y5.0821
G01 X23.8391 Y5.0831
G01 X24.0196 Y5.0832
G01 X24.1054 Y5.0920
G01 X24.2491 Y5.1396
G01 X24.2879 Y5.1632
G01 X24.3161 Y5.1768
G01 X24.3349 Y5.1839
G01 X24.3450 Y5.1864
G01 X24.3527 Y5.1877
G01 X24.4178 Y5.1944
G01 X24.4308 Y5.1946
G01 X24.4444 Y5.1932
G01 X24.4567 Y5.1903
G01 X24.4663 Y5.1870
G01 X24.5369 Y5.1549
G01 X24.5439 Y5.1511
G01 X24.5527 Y5.1454
G01 X24.5590 Y5.1405
G01 X24.5648 Y5.1351
G01 X24.5720 Y5.1274
G01 X24.5784 Y5.1189
G01 X24.6215 Y5.0514
G01 X24.6249 Y5.0446
G01 X24.6286 Y5.0352
G01 X24.6348 Y5.0146
G01 X24.6365 Y5.0072
G01 X24.6427 Y4.9648
G01 X24.6434 Y4.9522
G01 X24.6434 Y4.2209
G01 X24.6431 Y4.2129
G01 X24.6422 Y4.2050
G01 X24.6407 Y4.1972
G01 X24.6249 Y4.1351
G01 X24.6227 Y4.1275
G01 X24.6199 Y4.1200
G01 X24.6165 Y4.1128
G01 X24.6026 Y4.0874
G01 X24.5974 Y4.0787
G01 X24.5717 Y4.0443
G01 X24.5651 Y4.0367
G01 X24.4617 Y3.9332
G01 X24.3327 Y3.7557
G01 X24.2331 Y3.5602
G01 X24.1652 Y3.3515
G01 X24.1309 Y3.1347
G01 X24.1309 Y2.9153
G01 X24.1652 Y2.6986
G01 X24.2330 Y2.4899
G01 X24.3327 Y2.2943
G01 X24.4617 Y2.1168
G01 X24.6168 Y1.9617
G01 X24.7943 Y1.8327
G01 X24.9899 Y1.7330
G01 X25.1986 Y1.6652
G01 X25.4153 Y1.6309
G01 X25.6347 Y1.6309
G01 X25.8515 Y1.6652
G01 X26.0602 Y1.7330
G01 X26.2557 Y1.8327
G01 X26.4332 Y1.9617
G01 X26.5884 Y2.1168
G01 X26.7174 Y2.2943
G01 X26.8170 Y2.4899
G01 X26.8848 Y2.6986
G01 X26.9191 Y2.9153
G01 X26.9191 Y3.1347
G01 X26.8848 Y3.3515
G01 X26.8170 Y3.5602
G01 X26.7174 Y3.7557
G01 X26.5890 Y3.9326
G01 X26.5065 Y4.0151
G01 X26.4994 Y4.0229
G01 X26.4946 Y4.0292
G01 X26.4903 Y4.0359
G01 X26.4589 Y4.0888
G01 X26.4540 Y4.0982
G01 X26.4509 Y4.1055
G01 X26.4484 Y4.1131
G01 X26.4403 Y4.1408
G01 X26.4377 Y4.1531
G01 X26.4324 Y4.1906
G01 X26.4316 Y4.2032
G01 X26.4316 Y5.5455
G01 X26.4327 Y5.5678
G01 X26.4441 Y5.6827
G01 X26.4441 Y6.6719
G01 X26.4353 Y6.7577
G01 X26.3877 Y6.9014
G01 X26.3087 Y7.0295
G01 X26.2022 Y7.1360
G01 X26.0741 Y7.2151
G01 X25.9304 Y7.2627
G01 X25.8446 Y7.2714
G01 X25.2304 Y7.2714
G01 X25.1446 Y7.2627
G01 X25.0010 Y7.2151
G01 X24.8728 Y7.1360
G01 X24.7932 Y7.0566
G01 X24.7663 Y7.0348
G01 X24.7502 Y7.0241
G01 X24.7409 Y7.0190
G01 X24.7311 Y7.0149
G01 X24.6678 Y6.9938
G01 X24.6601 Y6.9918
G01 X24.6523 Y6.9904
G01 X24.6375 Y6.9891
G01 X24.6248 Y6.9896
G01 X24.6148 Y6.9910
G01 X24.5441 Y7.0064
G01 X24.5319 Y7.0098
G01 X24.5248 Y7.0125
G01 X24.5180 Y7.0158
G01 X24.4998 Y7.0257
G01 X24.4934 Y7.0297
G01 X24.4552 Y7.0585
G01 X24.4497 Y7.0635
G01 X24.3772 Y7.1360
G01 X24.2491 Y7.2151
G01 X24.1054 Y7.2627
G01 X24.0196 Y7.2714
G01 X23.4054 Y7.2714
G01 X23.3196 Y7.2627
G01 X23.1760 Y7.2151
G01 X23.0478 Y7.1360
G01 X22.9413 Y7.0295
G01 X22.8623 Y6.9014
G01 X22.8147 Y6.7577
G01 X22.8059 Y6.6719
G01 X22.8059 Y6.4395
G01 X22.8054 Y6.4289
G01 X22.8038 Y6.4184
G01 X22.7868 Y6.3512
G01 X22.7843 Y6.3436
G01 X22.7813 Y6.3362
G01 X22.7777 Y6.3291
G01 X22.7613 Y6.2994
G01 X22.7326 Y6.2610
G01 X22.7258 Y6.2535
G01 X22.0570 Y5.5847
G01 X22.0471 Y5.5760
G01 X22.0362 Y5.5685
G01 X21.9834 Y5.5371
G01 X21.9763 Y5.5333
G01 X21.9691 Y5.5300
G01 X21.9616 Y5.5273
G01 X21.9264 Y5.5173
G01 X21.8840 Y5.5109
G01 X21.8731 Y5.5099
G01 X21.7626 Y5.5098
G01 X21.7525 Y5.5105
G01 X21.7450 Y5.5117
G01 X21.7351 Y5.5141
G01 X21.7043 Y5.5231
G01 X21.6896 Y5.5252
G01 X21.6793 Y5.5278
G01 X21.6651 Y5.5331
G01 X21.6515 Y5.5398
G01 X21.6365 Y5.5490
G01 X21.6281 Y5.5553
G01 X21.6186 Y5.5642
G01 X21.6094 Y5.5749
G01 X21.5865 Y5.5938
G01 X21.5810 Y5.5990
G01 X21.5758 Y5.6045
G01 X21.5710 Y5.6105
G01 X21.5564 Y5.6322
G01 X21.5527 Y5.6387
G01 X21.5366 Y5.6708
G01 X21.5325 Y5.6809
G01 X21.5067 Y5.7547
G01 X21.4264 Y5.8823
G01 X21.3198 Y5.9889
G01 X21.1922 Y6.0692
G01 X21.0498 Y6.1190
G01 X20.9376 Y6.1316
G01 X20.5428 Y6.1316
G01 X20.5315 Y6.1322
G01 X20.4994 Y6.1358
G01 X20.4811 Y6.1398
G01 X20.4685 Y6.1441
G01 X20.4613 Y6.1473
G01 X20.4041 Y6.1760
G01 X20.3950 Y6.1815
G01 X20.3844 Y6.1895
G01 X20.3760 Y6.1974
G01 X20.3677 Y6.2071
G01 X20.3633 Y6.2134
G01 X20.3241 Y6.2745
G01 X20.3192 Y6.2834
G01 X20.3162 Y6.2904
G01 X20.3128 Y6.2999
G01 X20.3078 Y6.3174
G01 X20.3061 Y6.3248
G01 X20.3002 Y6.3647
G01 X20.2992 Y6.3748
G01 X20.2991 Y7.8497
G01 X20.2947 Y7.8903
G01 X20.2545 Y7.9983
G01 X20.1865 Y8.0891
G01 X20.0958 Y8.1570
G01 X19.9878 Y8.1972
G01 X19.9472 Y8.2016
G01 X19.8231 Y8.2016
G01 X19.8061 Y8.2023
G01 X19.7955 Y8.2036
G01 X19.7833 Y8.2065
G01 X19.7654 Y8.2094
G01 X19.7580 Y8.2114
G01 X19.7484 Y8.2148
G01 X19.7369 Y8.2203
G01 X19.7207 Y8.2305
G01 X19.7027 Y8.2378
G01 X19.6957 Y8.2415
G01 X19.6890 Y8.2457
G01 X19.6826 Y8.2504
G01 X19.6765 Y8.2556
G01 X19.6709 Y8.2611
G01 X19.6665 Y8.2662
G01 X19.6592 Y8.2721
G01 X19.6535 Y8.2776
G01 X19.6466 Y8.2855
G01 X19.6404 Y8.2941
G01 X19.6352 Y8.3033
G01 X19.6282 Y8.3185
G01 X19.6199 Y8.3300
G01 X19.6157 Y8.3367
G01 X19.6119 Y8.3437
G01 X19.6087 Y8.3509
G01 X19.6046 Y8.3635
G01 X19.6029 Y8.3712
G01 X19.6019 Y8.3778
G01 X19.5990 Y8.3867
G01 X19.5971 Y8.3944
G01 X19.5959 Y8.4023
G01 X19.5951 Y8.4128
G01 X19.5956 Y8.4260
G01 X19.5980 Y8.4426
G01 X19.5972 Y8.4567
G01 X19.5974 Y8.4673
G01 X19.5986 Y8.4778
G01 X19.6003 Y8.4855
G01 X19.6033 Y8.4957
G01 X19.6079 Y8.5067
G01 X19.6095 Y8.5132
G01 X19.6120 Y8.5208
G01 X19.6149 Y8.5281
G01 X19.6185 Y8.5352
G01 X19.6225 Y8.5420
G01 X19.6270 Y8.5485
G01 X19.6397 Y8.5633
G01 X19.6493 Y8.5798
G01 X19.6537 Y8.5860
G01 X19.6586 Y8.5918
G01 X19.6638 Y8.5973
G01 X20.6375 Y9.5431
G01 X20.6458 Y9.5503
G01 X20.6547 Y9.5567
G01 X20.7000 Y9.5853
G01 X20.7069 Y9.5890
G01 X20.7141 Y9.5923
G01 X20.7265 Y9.5966
G01 X20.7341 Y9.5984
G01 X20.7419 Y9.5996
G01 X20.8194 Y9.6052
G01 X20.8300 Y9.6052
G01 X20.8405 Y9.6041
G01 X20.8508 Y9.6020
G01 X20.8609 Y9.5989
G01 X20.8683 Y9.5959
G01 X20.8754 Y9.5923
G01 X20.9367 Y9.5589
G01 X20.9453 Y9.5536
G01 X20.9534 Y9.5475
G01 X20.9591 Y9.5425
G01 X21.0228 Y9.4788
G01 X21.1510 Y9.3998
G01 X21.2946 Y9.3522
G01 X21.3804 Y9.3434
G01 X21.9946 Y9.3434
G01 X22.0804 Y9.3522
G01 X22.2241 Y9.3998
G01 X22.3522 Y9.4788
G01 X22.4587 Y9.5853
G01 X22.5377 Y9.7135
G01 X22.5853 Y9.8571
G01 X22.5941 Y9.9429
G01 X22.5941 Y9.9764
G01 X22.5949 Y9.9870
G01 X22.5974 Y10.0001
G01 X22.6126 Y10.0595
G01 X22.6157 Y10.0696
G01 X22.6199 Y10.0794
G01 X22.6361 Y10.1095
G01 X22.6416 Y10.1180
G01 X22.6658 Y10.1503
G01 X22.6742 Y10.1598
G01 X23.1143 Y10.5998
G01 X23.1350 Y10.6181
G01 X23.1551 Y10.6333
G01 X23.1591 Y10.6404
G01 X23.1632 Y10.6467
G01 X23.1679 Y10.6527
G01 X23.1729 Y10.6584
G01 X23.2595 Y10.7451
G01 X23.3574 Y10.8915
G01 X23.4248 Y11.0542
G01 X23.4591 Y11.2270
G01 X23.4591 Y15.1235
G01 X23.4604 Y15.1370
G01 X23.4697 Y15.1883
G01 X23.4727 Y15.1987
G01 X23.4811 Y15.2203
G01 X23.4863 Y15.2300
G01 X23.4923 Y15.2391
G01 X23.5358 Y15.2970
G01 X23.5442 Y15.3065
G01 X23.5536 Y15.3149
G01 X23.5744 Y15.3302
G01 X23.6167 Y15.3534
G01 X23.6257 Y15.3572
G01 X23.7083 Y15.3881
G01 X23.7466 Y15.4165
G01 X23.7535 Y15.4208
G01 X23.7632 Y15.4257
G01 X23.8343 Y15.4523
G01 X23.8464 Y15.4561
G01 X23.8588 Y15.4583
G01 X23.8752 Y15.4595
G01 X23.8879 Y15.4590
G01 X23.9004 Y15.4571
G01 X23.9686 Y15.4422
G01 X23.9784 Y15.4396
G01 X23.9856 Y15.4370
G01 X23.9925 Y15.4340
G01 X24.0173 Y15.4203
G01 X24.0518 Y15.3948
G01 X24.0596 Y15.3883
G01 X24.1069 Y15.3412
G01 X24.1120 Y15.3357
G01 X24.1168 Y15.3297
G01 X24.1225 Y15.3214
G01 X24.1391 Y15.2911
G01 X24.1558 Y15.2637
G01 X24.1607 Y15.2541
G01 X24.1638 Y15.2466
G01 X24.1662 Y15.2389
G01 X24.1737 Y15.2111
G01 X24.1757 Y15.2001
G01 X24.1806 Y15.1623
G01 X24.1809 Y15.1304
G01 X24.1897 Y15.0446
G01 X24.2373 Y14.9010
G01 X24.3163 Y14.7728
G01 X24.4228 Y14.6663
G01 X24.5510 Y14.5873
G01 X24.6946 Y14.5397
G01 X24.7804 Y14.5309
G01 X25.7696 Y14.5309
G01 X25.8554 Y14.5397
G01 X25.9991 Y14.5873
G01 X26.1272 Y14.6663
G01 X26.2337 Y14.7728
G01 X26.3127 Y14.9010
G01 X26.3603 Y15.0446
G01 X26.3691 Y15.1304
G01 X26.3691 Y15.7446
G01 X26.3598 Y15.8358
G01 X26.3563 Y15.8434
G01 X26.3537 Y15.8504
G01 X26.3123 Y15.9748
G01 X26.2337 Y16.1022
G01 X26.1272 Y16.2087
G01 X25.9991 Y16.2877
G01 X25.8554 Y16.3353
G01 X25.7696 Y16.3441
G01 X25.7361 Y16.3441
G01 X25.7255 Y16.3449
G01 X25.7125 Y16.3474
G01 X25.6505 Y16.3633
G01 X25.6404 Y16.3667
G01 X25.6331 Y16.3699
G01 X25.6009 Y16.3874
G01 X25.5925 Y16.3931
G01 X25.5622 Y16.4158
G01 X25.5528 Y16.4242
G01 X24.5450 Y17.4320
G01 X24.3985 Y17.5299
G01 X24.2358 Y17.5973
G01 X24.1029 Y17.6237
G01 X24.0950 Y17.6256
G01 X24.0872 Y17.6281
G01 X24.0356 Y17.6499
G01 X24.0282 Y17.6533
G01 X24.0188 Y17.6589
G01 X24.0082 Y17.6661
G01 X23.9973 Y17.6748
G01 X23.9878 Y17.6847
G01 X23.9422 Y17.7412
G01 X23.9362 Y17.7494
G01 X23.9299 Y17.7604
G01 X23.9186 Y17.7871
G01 X23.9105 Y17.8115
G01 X23.8670 Y17.9283
G01 X23.7990 Y18.0191
G01 X23.7083 Y18.0870
G01 X23.6003 Y18.1272
G01 X23.5597 Y18.1316
G01 X21.6571 Y18.1318
G01 X21.6194 Y18.1358
G01 X21.6037 Y18.1391
G01 X21.5910 Y18.1431
G01 X21.5813 Y18.1474
G01 X21.5240 Y18.1761
G01 X21.5149 Y18.1815
G01 X21.5044 Y18.1896
G01 X21.4939 Y18.1996
G01 X21.4691 Y18.2282
G01 X21.4625 Y18.2366
G01 X21.4582 Y18.2434
G01 X21.4543 Y18.2504
G01 X21.4500 Y18.2603
G01 X21.4468 Y18.2703
G01 X21.4416 Y18.2789
G01 X21.4382 Y18.2857
G01 X21.4336 Y18.2975
G01 X21.4266 Y18.3223
G01 X21.4202 Y18.3647
G01 X21.4191 Y18.3773
G01 X21.4193 Y19.0554
G01 X21.4233 Y19.0931
G01 X21.4266 Y19.1088
G01 X21.4297 Y19.1190
G01 X21.4349 Y19.1313
G01 X21.4623 Y19.1861
G01 X21.4690 Y19.1976
G01 X21.4737 Y19.2041
G01 X21.4783 Y19.2095
G01 X21.4834 Y19.2151
G01 X21.4890 Y19.2203
G01 X21.5198 Y19.2468
G01 X21.5286 Y19.2530
G01 X21.5379 Y19.2582
G01 X21.5478 Y19.2625
G01 X21.5578 Y19.2657
G01 X21.5687 Y19.2722
G01 X21.5779 Y19.2764
G01 X21.5850 Y19.2789
G01 X21.6049 Y19.2848
G01 X21.6173 Y19.2873
G01 X21.6547 Y19.2927
G01 X21.6648 Y19.2934
G01 X26.8068 Y19.2934
G01 X26.8156 Y19.2931
G01 X26.8483 Y19.2894
G01 X26.8677 Y19.2855
G01 X26.8754 Y19.2832
G01 X26.8830 Y19.2804
G01 X26.8903 Y19.2770
G01 X26.9478 Y19.2476
G01 X26.9570 Y19.2420
G01 X26.9635 Y19.2372
G01 X26.9881 Y19.2153
G01 X27.0161 Y19.1828
G01 X27.0223 Y19.1747
G01 X27.0694 Y19.0999
G01 X27.2371 Y18.8897
G01 X27.4272 Y18.6996
G01 X27.6374 Y18.5319
G01 X27.8651 Y18.3888
G01 X28.1074 Y18.2722
G01 X28.3612 Y18.1834
G01 X28.6241 Y18.1234
G01 X28.8791 Y18.0947
G01 X28.8875 Y18.0934
G01 X29.1595 Y18.0934
G01 X29.4267 Y18.1235
G01 X29.6888 Y18.1834
G01 X29.9426 Y18.2722
G01 X30.1849 Y18.3888
G01 X30.4126 Y18.5319
G01 X30.5417 Y18.6349
G01 X30.5479 Y18.6395
G01 X30.5544 Y18.6436
G01 X30.6037 Y18.6693
G01 X30.6162 Y18.6745
G01 X30.6560 Y18.6860
G01 X30.7009 Y18.6927
G01 X30.7136 Y18.6934
G01 X34.0530 Y18.6934
G01 X34.0636 Y18.6929
G01 X34.0715 Y18.6918
G01 X34.0793 Y18.6901
G01 X34.1516 Y18.6697
G01 X34.1591 Y18.6668
G01 X34.1663 Y18.6635
G01 X34.1811 Y18.6547
G01 X34.1913 Y18.6472
G01 X34.1970 Y18.6422
G01 X34.2023 Y18.6367
G01 X34.2510 Y18.5829
G01 X34.2576 Y18.5744
G01 X34.2634 Y18.5652
G01 X34.2730 Y18.5458
G01 X34.2769 Y18.5365
G01 X34.2893 Y18.4981
G01 X34.2919 Y18.4883
G01 X34.3412 Y18.1932
G01 X34.3645 Y18.1183
G01 X34.4270 Y18.0234
G01 X34.5135 Y17.9502
G01 X34.6174 Y17.9041
G01 X34.6950 Y17.8934
G01 X35.8550 Y17.8934
G01 X35.9326 Y17.9041
G01 X36.0365 Y17.9502
G01 X36.1230 Y18.0234
G01 X36.1855 Y18.1183
G01 X36.2088 Y18.1932
G01 X36.2585 Y18.4914
G01 X36.2608 Y18.5018
G01 X36.2641 Y18.5119
G01 X36.2672 Y18.5192
G01 X36.2982 Y18.5848
G01 X36.3051 Y18.5961
G01 X36.3100 Y18.6024
G01 X36.3161 Y18.6095
G01 X36.3254 Y18.6189
G01 X36.3357 Y18.6272
G01 X36.4021 Y18.6697
G01 X36.4111 Y18.6744
G01 X36.4205 Y18.6781
G01 X36.4477 Y18.6860
G01 X36.4926 Y18.6927
G01 X36.5052 Y18.6934
G01 X37.2301 Y18.6934
G01 X37.2376 Y18.6929
G01 X37.2477 Y18.6915
G01 X37.3042 Y18.6792
G01 X37.3144 Y18.6761
G01 X37.3219 Y18.6732
G01 X37.3314 Y18.6685
G01 X37.3403 Y18.6628
G01 X37.3487 Y18.6562
G01 X37.4035 Y18.6087
G01 X37.4127 Y18.5992
G01 X37.4206 Y18.5887
G01 X37.4272 Y18.5772
G01 X37.4305 Y18.5700
G01 X37.4332 Y18.5626
G01 X37.4550 Y18.4879
G01 X37.4565 Y18.4801
G01 X37.4575 Y18.4723
G01 X37.4579 Y18.4643
G01 X37.4577 Y18.4564
G01 X37.4565 Y18.4459
G01 X37.4543 Y18.4356
G01 X37.4332 Y18.3635
G01 X37.4305 Y18.3560
G01 X37.4272 Y18.3488
G01 X37.4221 Y18.3396
G01 X37.4176 Y18.3330
G01 X37.4109 Y18.3248
G01 X37.4035 Y18.3173
G01 X37.3447 Y18.2665
G01 X37.3363 Y18.2606
G01 X37.3274 Y18.2554
G01 X37.2898 Y18.2381
G01 X37.2567 Y18.2143
G01 X37.2405 Y18.2012
G01 X37.2045 Y18.1689
G01 X36.1772 Y17.1416
G01 X36.1687 Y17.1340
G01 X36.1439 Y17.1142
G01 X36.1352 Y17.1085
G01 X36.1236 Y17.1025
G01 X36.1113 Y17.0981
G01 X36.0418 Y17.0777
G01 X36.0344 Y17.0760
G01 X36.0269 Y17.0749
G01 X36.0143 Y17.0741
G01 X32.0931 Y17.0741
G01 X31.9657 Y17.0558
G01 X31.9133 Y17.0404
G01 X31.8004 Y16.9888
G01 X31.7462 Y16.9472
G01 X31.7222 Y16.9253
G01 X31.6706 Y16.8696
G01 X30.9601 Y15.9607
G01 X30.8962 Y15.8490
G01 X30.8760 Y15.7982
G01 X30.8463 Y15.6744
G01 X30.8450 Y15.6509
G01 X30.8445 Y15.6290
G01 X30.8727 Y8.9849
G01 X30.8916 Y8.8577
G01 X30.9072 Y8.8053
G01 X30.9599 Y8.6910
G01 X30.9833 Y8.6588
G01 X30.9962 Y8.6430
G01 X31.0279 Y8.6077
G01 X31.4511 Y8.1845
G01 X31.5541 Y8.1074
G01 X31.6021 Y8.0812
G01 X31.7199 Y8.0373
G01 X31.7602 Y8.0307
G01 X31.7809 Y8.0285
G01 X31.8292 Y8.0259
G01 X38.4158 Y8.0259
G01 X38.4272 Y8.0326
G01 X38.4343 Y8.0358
G01 X38.4416 Y8.0385
G01 X38.4492 Y8.0407
G01 X38.4568 Y8.0423
G01 X38.4646 Y8.0434
G01 X38.4724 Y8.0439
G01 X39.0542 Y8.0439
G01 X39.0564 Y8.0442
G01 X39.1088 Y8.0596
G01 X39.2202 Y8.1105
G01 X39.2647 Y8.1469
G01 X39.2711 Y8.1516
G01 X39.2779 Y8.1557
G01 X39.2872 Y8.1604
G01 X39.3482 Y8.1872
G01 X39.3554 Y8.1901
G01 X39.3628 Y8.1924
G01 X39.3728 Y8.1947
G01 X39.3831 Y8.1959
G01 X39.3934 Y8.1962
G01 X39.4037 Y8.1955
G01 X39.4806 Y8.1843
G01 X39.4883 Y8.1825
G01 X39.4959 Y8.1802
G01 X39.5032 Y8.1772
G01 X39.5103 Y8.1738
G01 X39.5216 Y8.1668
G01 X39.5299 Y8.1603
G01 X39.5847 Y8.1128
G01 X39.5921 Y8.1053
G01 X39.5988 Y8.0971
G01 X39.6059 Y8.0860
G01 X39.6116 Y8.0741
G01 X39.6151 Y8.0641
G01 X39.6247 Y8.0316
G01 X39.6319 Y8.0274
G01 X39.6384 Y8.0230
G01 X39.6445 Y8.0181
G01 X39.6502 Y8.0127
G01 X39.6556 Y8.0070
G01 X39.6605 Y8.0009
G01 X39.6649 Y7.9944
G01 X39.6688 Y7.9877
G01 X39.6733 Y7.9782
G01 X39.6768 Y7.9684
G01 X39.6794 Y7.9583
G01 X39.6811 Y7.9453
G01 X39.6814 Y7.9375
G01 X39.6814 Y6.1349
G01 X39.6803 Y6.1219
G01 X39.6776 Y6.1091
G01 X39.6743 Y6.0992
G01 X39.6688 Y6.0874
G01 X39.6620 Y6.0762
G01 X39.6538 Y6.0661
G01 X39.6445 Y6.0569
G01 X39.6341 Y6.0490
G01 X39.6229 Y6.0425
G01 X39.6133 Y6.0382
G01 X39.6009 Y6.0343
G01 X39.5906 Y6.0323
G01 X39.5776 Y6.0311
G01 X39.5124 Y6.0311
G01 X39.4936 Y6.0123
G01 X39.4134 Y5.8847
G01 X39.3636 Y5.7423
G01 X39.3509 Y5.6301
G01 X39.3509 Y4.3049
G01 X39.3636 Y4.1927
G01 X39.3880 Y4.1225
G01 X39.3960 Y4.0884
G01 X39.3980 Y4.0765
G01 X39.3996 Y4.0595
G01 X39.3992 Y4.0459
G01 X39.3887 Y3.9731
G01 X39.3860 Y3.9626
G01 X39.3819 Y3.9514
G01 X39.3763 Y3.9401
G01 X39.3708 Y3.9315
G01 X39.3204 Y3.8694
G01 X39.3134 Y3.8620
G01 X39.3058 Y3.8554
G01 X39.2846 Y3.8406
G01 X39.2629 Y3.8278
G01 X39.2496 Y3.8211
G01 X39.2402 Y3.8172
G01 X39.0443 Y3.7174
G01 X38.8668 Y3.5884
G01 X38.7117 Y3.4332
G01 X38.5827 Y3.2557
G01 X38.4830 Y3.0602
G01 X38.4152 Y2.8515
G01 X38.3809 Y2.6347
G01 X38.3809 Y2.4153
G01 X38.4152 Y2.1986
G01 X38.4830 Y1.9899
G01 X38.5827 Y1.7943
G01 X38.7117 Y1.6168
G01 X38.8668 Y1.4617
G01 X39.0443 Y1.3327
G01 X39.2399 Y1.2330
G01 X39.4486 Y1.1652
G01 X39.6653 Y1.1309
G01 X39.8847 Y1.1309
G01 X40.1015 Y1.1652
G01 X40.3102 Y1.2330
G01 X40.5057 Y1.3327
G01 X40.6832 Y1.4617
G01 X40.7670 Y1.5454
G01 X40.7771 Y1.5539
G01 X40.7859 Y1.5597
G01 X40.8410 Y1.5924
G01 X40.8481 Y1.5960
G01 X40.8554 Y1.5991
G01 X40.8631 Y1.6017
G01 X40.8957 Y1.6110
G01 X40.9406 Y1.6177
G01 X40.9532 Y1.6184
G01 X44.2696 Y1.6184
G01 X44.3554 Y1.6272
G01 X44.4991 Y1.6748
G01 X44.6272 Y1.7538
G01 X44.7337 Y1.8603
G01 X44.8127 Y1.9885
G01 X44.8603 Y2.1321
G01 X44.8691 Y2.2179
G01 X44.8691 Y2.8321
G01 X44.8598 Y2.9233
G01 X44.8563 Y2.9309
G01 X44.8537 Y2.9379
G01 X44.8127 Y3.0616
G01 X44.7337 Y3.1897
G01 X44.6543 Y3.2693
G01 X44.6324 Y3.2963
G01 X44.6218 Y3.3123
G01 X44.6167 Y3.3216
G01 X44.6126 Y3.3314
G01 X44.5915 Y3.3947
G01 X44.5895 Y3.4024
G01 X44.5880 Y3.4102
G01 X44.5872 Y3.4182
G01 X44.5868 Y3.4276
G01 X44.5873 Y3.4377
G01 X44.5887 Y3.4477
G01 X44.6041 Y3.5184
G01 X44.6059 Y3.5258
G01 X44.6083 Y3.5330
G01 X44.6135 Y3.5446
G01 X44.6234 Y3.5627
G01 X44.6274 Y3.5692
G01 X44.6562 Y3.6075
G01 X44.6614 Y3.6130
G01 X44.7337 Y3.6853
G01 X44.8127 Y3.8135
G01 X44.8603 Y3.9571
G01 X44.8691 Y4.0429
G01 X44.8691 Y4.6571
G01 X44.8603 Y4.7429
G01 X44.8247 Y4.8511
G01 X44.8169 Y4.8857
G01 X44.8151 Y4.8998
G01 X44.8147 Y4.9101
G01 X44.8155 Y4.9230
G01 X44.8232 Y4.9849
G01 X44.8253 Y4.9951
G01 X44.8274 Y5.0026
G01 X44.8305 Y5.0107
G01 X44.8348 Y5.0198
G01 X44.8546 Y5.0552
G01 X44.8605 Y5.0641
G01 X44.8691 Y5.0743
G01 X44.8769 Y5.0817
G01 X44.8852 Y5.0882
G01 X44.8901 Y5.0943
G01 X44.8954 Y5.1001
G01 X44.9012 Y5.1056
G01 X44.9073 Y5.1106
G01 X44.9183 Y5.1178
G01 X44.9278 Y5.1226
G01 X44.9375 Y5.1264
G01 X44.9462 Y5.1324
G01 X44.9554 Y5.1375
G01 X44.9676 Y5.1426
G01 X44.9777 Y5.1456
G01 X44.9881 Y5.1475
G01 X44.9985 Y5.1485
G01 X45.0080 Y5.1516
G01 X45.0154 Y5.1534
G01 X45.0229 Y5.1547
G01 X45.0305 Y5.1554
G01 X45.0591 Y5.1570
G01 X45.0881 Y5.1562
G01 X45.1910 Y5.1447
G01 X45.1994 Y5.1434
G01 X46.5276 Y5.1434
G01 X46.6398 Y5.1561
G01 X46.7822 Y5.2059
G01 X46.9098 Y5.2861
G01 X47.0164 Y5.3927
G01 X47.0967 Y5.5204
G01 X47.1465 Y5.6627
G01 X47.1591 Y5.7749
G01 X47.1592 Y6.1725
G01 X47.1597 Y6.1811
G01 X47.1629 Y6.2103
G01 X47.1666 Y6.2288
G01 X47.1697 Y6.2390
G01 X47.1737 Y6.2488
G01 X47.2023 Y6.3061
G01 X47.2090 Y6.3175
G01 X47.2170 Y6.3281
G01 X47.2268 Y6.3383
G01 X47.2368 Y6.3464
G01 X47.3020 Y6.3884
G01 X47.3109 Y6.3933
G01 X47.3202 Y6.3973
G01 X47.3473 Y6.4054
G01 X47.3573 Y6.4073
G01 X47.3922 Y6.4123
G01 X47.4048 Y6.4134
G01 X48.8772 Y6.4134
G01 X48.9178 Y6.4178
G01 X49.0258 Y6.4581
G01 X49.1166 Y6.5260
G01 X49.1845 Y6.6167
G01 X49.2247 Y6.7247
G01 X49.2291 Y6.7653
G01 X49.2291 Y7.9497
G01 X49.2247 Y7.9903
G01 X49.1845 Y8.0983
G01 X49.1165 Y8.1891
G01 X49.0258 Y8.2570
G01 X48.9178 Y8.2972
G01 X48.8772 Y8.3016
G01 X46.9928 Y8.3016
G01 X46.9522 Y8.2972
G01 X46.8442 Y8.2570
G01 X46.7535 Y8.1890
G01 X46.6896 Y8.1038
G01 X46.6779 Y8.0903
G01 X46.6689 Y8.0805
G01 X46.6612 Y8.0730
G01 X46.6555 Y8.0680
G01 X46.6494 Y8.0635
G01 X46.6430 Y8.0594
G01 X46.5918 Y8.0302
G01 X46.5845 Y8.0264
G01 X46.5717 Y8.0213
G01 X46.5399 Y8.0123
G01 X46.4950 Y8.0056
G01 X46.4825 Y8.0048
G01 X45.5874 Y8.0048
G01 X45.5749 Y8.0051
G01 X45.5672 Y8.0058
G01 X45.5596 Y8.0070
G01 X45.5521 Y8.0088
G01 X45.5448 Y8.0111
G01 X45.4765 Y8.0355
G01 X45.4645 Y8.0410
G01 X45.4532 Y8.0479
G01 X45.4449 Y8.0544
G01 X45.4355 Y8.0637
G01 X45.4304 Y8.0697
G01 X45.3846 Y8.1293
G01 X45.3777 Y8.1406
G01 X45.3723 Y8.1526
G01 X45.3684 Y8.1652
G01 X45.3662 Y8.1782
G01 X45.3598 Y8.2505
G01 X45.3594 Y8.2610
G01 X45.3601 Y8.2716
G01 X45.3618 Y8.2820
G01 X45.3654 Y8.2947
G01 X45.3693 Y8.3045
G01 X45.4054 Y8.3733
G01 X45.4108 Y8.3819
G01 X45.4186 Y8.3919
G01 X46.1246 Y9.1201
G01 X46.2001 Y9.2242
G01 X46.2256 Y9.2726
G01 X46.2437 Y9.3236
G01 X46.2481 Y9.3349
G01 X46.2536 Y9.3467
G01 X46.2591 Y9.3556
G01 X46.2654 Y9.3640
G01 X46.3101 Y9.4176
G01 X46.3154 Y9.4235
G01 X46.3232 Y9.4307
G01 X46.3294 Y9.4356
G01 X46.3383 Y9.4414
G01 X46.3452 Y9.4451
G01 X46.3525 Y9.4483
G01 X46.3600 Y9.4510
G01 X46.4266 Y9.4719
G01 X46.4343 Y9.4740
G01 X46.4473 Y9.4762
G01 X46.4578 Y9.4768
G01 X46.4684 Y9.4763
G01 X46.4789 Y9.4748
G01 X46.4866 Y9.4730
G01 X46.5540 Y9.4545
G01 X46.5636 Y9.4514
G01 X46.5706 Y9.4485
G01 X46.5796 Y9.4438
G01 X46.6510 Y9.3998
G01 X46.7946 Y9.3522
G01 X46.8804 Y9.3434
G01 X47.4946 Y9.3434
G01 X47.5804 Y9.3522
G01 X47.7241 Y9.3998
G01 X47.8522 Y9.4788
G01 X47.9587 Y9.5853
G01 X48.0377 Y9.7135
G01 X48.0853 Y9.8571
G01 X48.0941 Y9.9429
G01 X48.0942 Y9.9791
G01 X48.0953 Y9.9896
G01 X48.0974 Y10.0001
G01 X48.1126 Y10.0595
G01 X48.1157 Y10.0696
G01 X48.1211 Y10.0818
G01 X48.1349 Y10.1073
G01 X48.1402 Y10.1159
G01 X48.1658 Y10.1503
G01 X48.1742 Y10.1598
G01 X48.7195 Y10.7051
G01 X48.8174 Y10.8515
G01 X48.8848 Y11.0142
G01 X48.9191 Y11.1869
G01 X48.9191 Y14.4388
G01 X48.9198 Y14.4507
G01 X48.9239 Y14.4852
G01 X48.9274 Y14.5011
G01 X48.9306 Y14.5114
G01 X48.9361 Y14.5238
G01 X48.9648 Y14.5792
G01 X48.9688 Y14.5863
G01 X48.9734 Y14.5931
G01 X48.9802 Y14.6015
G01 X48.9987 Y14.6216
G01 X49.0314 Y14.6493
G01 X49.0416 Y14.6568
G01 X49.0772 Y14.6788
G01 X49.1837 Y14.7853
G01 X49.2627 Y14.9135
G01 X49.3103 Y15.0571
G01 X49.3191 Y15.1429
G01 X49.3191 Y18.2321
G01 X49.3098 Y18.3233
G01 X49.3063 Y18.3309
G01 X49.3037 Y18.3379
G01 X49.2627 Y18.4616
G01 X49.1837 Y18.5897
G01 X49.0772 Y18.6962
G01 X48.9491 Y18.7752
G01 X48.8054 Y18.8228
G01 X48.7196 Y18.8316
G01 X47.3304 Y18.8316
G01 X47.2446 Y18.8228
G01 X47.1010 Y18.7752
G01 X46.9728 Y18.6962
G01 X46.8663 Y18.5897
G01 X46.7873 Y18.4616
G01 X46.7397 Y18.3179
G01 X46.7309 Y18.2321
G01 X46.7309 Y17.8225
G01 X46.7303 Y17.8140
G01 X46.7267 Y17.7820
G01 X46.7234 Y17.7662
G01 X46.7204 Y17.7560
G01 X46.7152 Y17.7438
G01 X46.6877 Y17.6889
G01 X46.6825 Y17.6797
G01 X46.6763 Y17.6710
G01 X46.6695 Y17.6629
G01 X46.6621 Y17.6557
G01 X46.6541 Y17.6492
G01 X46.5880 Y17.6066
G01 X46.5791 Y17.6017
G01 X46.5722 Y17.5987
G01 X46.5650 Y17.5961
G01 X46.5476 Y17.5909
G01 X46.5378 Y17.5886
G01 X46.4978 Y17.5827
G01 X46.4853 Y17.5816
G01 X45.6498 Y17.5816
G01 X45.6413 Y17.5820
G01 X45.6129 Y17.5846
G01 X45.6011 Y17.5870
G01 X45.5886 Y17.5912
G01 X45.5329 Y17.6138
G01 X45.5213 Y17.6201
G01 X45.5072 Y17.6300
G01 X45.4992 Y17.6370
G01 X45.4920 Y17.6447
G01 X45.4465 Y17.7011
G01 X45.4420 Y17.7072
G01 X45.4378 Y17.7136
G01 X45.4331 Y17.7226
G01 X45.4224 Y17.7487
G01 X45.4104 Y17.7951
G01 X45.4092 Y17.8026
G01 X45.4072 Y17.8203
G01 X45.3670 Y17.9283
G01 X45.2990 Y18.0191
G01 X45.2083 Y18.0870
G01 X45.1003 Y18.1272
G01 X45.0597 Y18.1316
G01 X43.1628 Y18.1316
G01 X43.1543 Y18.1320
G01 X43.1223 Y18.1354
G01 X43.1138 Y18.1369
G01 X43.0986 Y18.1405
G01 X43.0910 Y18.1431
G01 X43.0837 Y18.1462
G01 X43.0240 Y18.1761
G01 X43.0172 Y18.1801
G01 X43.0106 Y18.1846
G01 X42.9983 Y18.1951
G01 X42.9913 Y18.2026
G01 X42.9851 Y18.2107
G01 X42.9441 Y18.2745
G01 X42.9382 Y18.2857
G01 X42.9353 Y18.2927
G01 X42.9329 Y18.2999
G01 X42.9278 Y18.3174
G01 X42.9256 Y18.3272
G01 X42.9199 Y18.3672
G01 X42.9191 Y18.3773
G01 X42.9191 Y18.7972
G01 X42.8848 Y19.0140
G01 X42.8170 Y19.2227
G01 X42.7173 Y19.4182
G01 X42.5884 Y19.5957
G01 X41.0332 Y21.1509
G01 X40.8557 Y21.2799
G01 X40.6602 Y21.3795
G01 X40.4515 Y21.4473
G01 X40.2347 Y21.4816
G01 X37.0454 Y21.4816
G01 X37.0318 Y21.4825
G01 X36.9915 Y21.4887
G01 X36.9835 Y21.4903
G01 X36.9756 Y21.4925
G01 X36.9588 Y21.4979
G01 X36.9518 Y21.5008
G01 X36.9428 Y21.5054
G01 X36.8763 Y21.5500
G01 X36.8700 Y21.5549
G01 X36.8622 Y21.5620
G01 X36.8569 Y21.5679
G01 X36.8520 Y21.5741
G01 X36.8476 Y21.5807
G01 X36.8436 Y21.5875
G01 X36.8402 Y21.5947
G01 X36.8107 Y21.6636
G01 X36.8076 Y21.6732
G01 X36.8059 Y21.6806
G01 X36.8026 Y21.7069
G01 X36.8023 Y21.7171
G01 X36.8034 Y21.7574
G01 X36.8045 Y21.7674
G01 X36.8234 Y21.8808
G01 X36.8083 Y21.9954
G01 X36.7623 Y22.0990
G01 X36.6891 Y22.1855
G01 X36.5944 Y22.2478
G01 X36.4839 Y22.2816
G01 X34.0661 Y22.2816
G01 X33.9557 Y22.2479
G01 X33.8609 Y22.1855
G01 X33.7877 Y22.0990
G01 X33.7418 Y21.9954
G01 X33.7266 Y21.8808
G01 X33.7457 Y21.7663
G01 X33.7467 Y21.7582
G01 X33.7471 Y21.7500
G01 X33.7476 Y21.7092
G01 X33.7465 Y21.6956
G01 X33.7443 Y21.6806
G01 X33.7428 Y21.6732
G01 X33.7299 Y21.6293
G01 X33.7269 Y21.6219
G01 X33.7222 Y21.6123
G01 X33.7164 Y21.6032
G01 X33.7082 Y21.5928
G01 X33.7036 Y21.5834
G01 X33.6995 Y21.5766
G01 X33.6916 Y21.5661
G01 X33.6825 Y21.5565
G01 X33.6744 Y21.5497
G01 X33.6657 Y21.5438
G01 X33.6587 Y21.5361
G01 X33.6508 Y21.5291
G01 X33.6401 Y21.5214
G01 X33.6332 Y21.5174
G01 X33.6261 Y21.5140
G01 X33.6187 Y21.5111
G01 X33.6112 Y21.5088
G01 X33.6026 Y21.5036
G01 X33.5958 Y21.5002
G01 X33.5888 Y21.4973
G01 X33.5816 Y21.4949
G01 X33.5658 Y21.4903
G01 X33.5559 Y21.4881
G01 X33.5160 Y21.4824
G01 X33.5033 Y21.4816
G01 X31.3655 Y21.4816
G01 X31.3582 Y21.4819
G01 X31.3509 Y21.4826
G01 X31.3099 Y21.4885
G01 X31.2863 Y21.4950
G01 X31.2736 Y21.4999
G01 X31.2616 Y21.5063
G01 X31.2010 Y21.5440
G01 X31.1923 Y21.5504
G01 X31.1823 Y21.5596
G01 X31.1679 Y21.5756
G01 X31.1631 Y21.5815
G01 X31.1391 Y21.6171
G01 X31.1339 Y21.6262
G01 X31.1237 Y21.6474
G01 X30.9806 Y21.8751
G01 X30.8130 Y22.0853
G01 X30.6228 Y22.2755
G01 X30.4126 Y22.4431
G01 X30.1849 Y22.5862
G01 X29.9426 Y22.7029
G01 X29.6888 Y22.7917
G01 X29.4266 Y22.8515
G01 X29.1595 Y22.8816
G01 X28.8906 Y22.8816
G01 X28.6233 Y22.8515
G01 X28.4672 Y22.8159
G01 X28.3612 Y22.7917
G01 X28.1074 Y22.7029
G01 X27.8649 Y22.5861
G01 X27.6374 Y22.4431
G01 X27.4272 Y22.2755
G01 X27.3063 Y22.1547
G01 X27.2983 Y22.1478
G01 X27.2897 Y22.1417
G01 X27.2322 Y22.1076
G01 X27.2251 Y22.1040
G01 X27.2178 Y22.1009
G01 X27.2102 Y22.0984
G01 X27.1776 Y22.0891
G01 X27.1702 Y22.0877
G01 X27.1298 Y22.0821
G01 X27.1201 Y22.0816
G01 X22.3218 Y22.0816
G01 X22.3144 Y22.0819
G01 X22.3022 Y22.0834
G01 X22.2441 Y22.0959
G01 X22.2310 Y22.1003
G01 X22.2148 Y22.1075
G01 X22.2060 Y22.1125
G01 X22.1957 Y22.1199
G01 X22.1644 Y22.1464
G01 X22.1543 Y22.1541
G01 X22.1470 Y22.1611
G01 X22.1384 Y22.1684
G01 X22.1309 Y22.1758
G01 X22.1257 Y22.1819
G01 X22.1210 Y22.1883
G01 X22.1104 Y22.2045
G01 X22.1043 Y22.2156
G01 X22.0893 Y22.2475
G01 X22.0856 Y22.2565
G01 X22.0230 Y22.3516
G01 X21.9365 Y22.4248
G01 X21.8329 Y22.4708
G01 X21.7170 Y22.4861
G01 X21.6505 Y22.4802
G01 X21.6420 Y22.4762
G01 X21.6349 Y22.4735
G01 X21.6252 Y22.4707
G01 X21.6177 Y22.4692
G01 X18.0307 Y21.8713
G01 X17.9558 Y21.8480
G01 X17.8609 Y21.7855
G01 X17.7877 Y21.6990
G01 X17.7416 Y21.5951
G01 X17.7309 Y21.5175
G01 X17.7309 Y20.3575
G01 X17.7416 Y20.2799
G01 X17.7877 Y20.1760
G01 X17.8609 Y20.0895
G01 X17.9558 Y20.0270
G01 X18.0307 Y20.0037
G01 X18.4289 Y19.9373
G01 X18.4418 Y19.9343
G01 X18.4543 Y19.9298
G01 X18.5175 Y19.9001
G01 X18.5246 Y19.8964
G01 X18.5314 Y19.8922
G01 X18.5378 Y19.8876
G01 X18.5489 Y19.8781
G01 X18.5543 Y19.8728
G01 X18.5610 Y19.8651
G01 X18.5654 Y19.8590
G01 X18.6072 Y19.7938
G01 X18.6119 Y19.7848
G01 X18.6148 Y19.7778
G01 X18.6229 Y19.7507
G01 X18.6248 Y19.7407
G01 X18.6298 Y19.7058
G01 X18.6306 Y19.6982
G01 X18.6309 Y19.6907
G01 X18.6309 Y16.6278
G01 X18.6652 Y16.4111
G01 X18.7330 Y16.2024
G01 X18.8327 Y16.0068
G01 X18.9617 Y15.8293
G01 X19.1168 Y15.6742
G01 X19.2943 Y15.5452
G01 X19.4899 Y15.4455
G01 X19.6986 Y15.3777
G01 X19.9153 Y15.3434
G01 X20.1347 Y15.3434
G01 X20.3515 Y15.3777
G01 X20.5602 Y15.4455
G01 X20.7557 Y15.5452
G01 X20.8999 Y15.6500
G01 X20.9083 Y15.6555
G01 X20.9189 Y15.6610
G01 X20.9655 Y15.6818
G01 X20.9731 Y15.6849
G01 X20.9837 Y15.6881
G01 X21.0018 Y15.6918
G01 X21.0119 Y15.6927
G01 X21.0221 Y15.6927
G01 X21.0969 Y15.6874
G01 X21.1099 Y15.6853
G01 X21.1201 Y15.6825
G01 X21.1324 Y15.6776
G01 X21.1417 Y15.6726
G01 X21.1504 Y15.6667
G01 X21.2064 Y15.6248
G01 X21.2160 Y15.6166
G01 X21.2247 Y15.6073
G01 X21.2391 Y15.5881
G01 X21.2443 Y15.5795
G01 X21.2600 Y15.5509
G01 X21.3310 Y15.4560
G01 X21.3787 Y15.4199
G01 X21.3879 Y15.4108
G01 X21.3995 Y15.3963
G01 X21.5126 Y15.3540
G01 X21.5223 Y15.3492
G01 X21.5625 Y15.3254
G01 X21.5694 Y15.3210
G01 X21.5759 Y15.3160
G01 X21.5926 Y15.3012
G01 X21.6226 Y15.2670
G01 X21.6304 Y15.2561
G01 X21.6345 Y15.2491
G01 X21.6379 Y15.2419
G01 X21.6409 Y15.2344
G01 X21.6432 Y15.2269
G01 X21.6485 Y15.2182
G01 X21.6529 Y15.2091
G01 X21.6564 Y15.1996
G01 X21.6616 Y15.1822
G01 X21.6635 Y15.1749
G01 X21.6648 Y15.1674
G01 X21.6702 Y15.1299
G01 X21.6709 Y15.1173
G01 X21.6709 Y11.7913
G01 X21.6701 Y11.7780
G01 X21.6682 Y11.7676
G01 X21.6518 Y11.7030
G01 X21.6493 Y11.6954
G01 X21.6463 Y11.6880
G01 X21.6303 Y11.6581
G01 X21.6251 Y11.6495
G01 X21.6120 Y11.6318
G01 X21.6078 Y11.6252
G01 X21.6031 Y11.6189
G01 X21.5979 Y11.6128
G01 X21.5885 Y11.6031
G01 X21.5803 Y11.5962
G01 X21.5714 Y11.5902
G01 X21.5410 Y11.5734
G01 X21.5137 Y11.5568
G01 X21.5024 Y11.5511
G01 X21.4953 Y11.5483
G01 X21.4881 Y11.5461
G01 X21.4612 Y11.5389
G01 X21.4502 Y11.5368
G01 X21.4123 Y11.5319
G01 X21.3804 Y11.5316
G01 X21.2946 Y11.5228
G01 X21.1509 Y11.4752
G01 X21.1429 Y11.4709
G01 X21.1358 Y11.4677
G01 X21.1158 Y11.4606
G01 X21.0804 Y11.4519
G01 X21.0728 Y11.4507
G01 X21.0627 Y11.4500
G01 X21.0551 Y11.4500
G01 X21.0475 Y11.4507
G01 X20.9732 Y11.4614
G01 X20.9604 Y11.4644
G01 X20.9504 Y11.4679
G01 X20.9432 Y11.4712
G01 X20.9363 Y11.4750
G01 X20.9296 Y11.4794
G01 X20.9233 Y11.4842
G01 X20.8666 Y11.5334
G01 X20.8609 Y11.5389
G01 X20.8557 Y11.5449
G01 X20.8509 Y11.5512
G01 X20.8453 Y11.5602
G01 X20.8417 Y11.5672
G01 X20.8377 Y11.5770
G01 X20.8158 Y11.6516
G01 X20.8132 Y11.6639
G01 X20.8123 Y11.6740
G01 X20.8122 Y12.8565
G01 X20.7939 Y12.9839
G01 X20.7786 Y13.0363
G01 X20.7264 Y13.1505
G01 X20.7004 Y13.1863
G01 X20.6863 Y13.2035
G01 X20.6512 Y13.2417
G01 X19.9187 Y13.9525
G01 X19.8145 Y14.0281
G01 X19.7662 Y14.0535
G01 X19.6475 Y14.0957
G01 X19.6105 Y14.1013
G01 X19.5912 Y14.1032
G01 X19.5461 Y14.1055
G01 X17.2783 Y14.1046
G01 X17.2684 Y14.1051
G01 X17.2212 Y14.1126
G01 X17.2111 Y14.1147
G01 X17.2036 Y14.1170
G01 X17.1940 Y14.1209
G01 X17.1871 Y14.1244
G01 X17.1783 Y14.1298
G01 X17.1229 Y14.1678
G01 X17.1134 Y14.1756
G01 X17.1066 Y14.1819
G01 X16.9898 Y14.2989
G01 X16.8622 Y14.3792
G01 X16.7198 Y14.4290
G01 X16.6076 Y14.4416
G01 X15.9824 Y14.4416
G01 X15.8702 Y14.4290
G01 X15.7279 Y14.3792
G01 X15.6197 Y14.3112
G01 X15.6002 Y14.2989
G01 X15.4936 Y14.1923
G01 X15.4134 Y14.0647
G01 X15.3636 Y13.9223
G01 X15.3509 Y13.8101
G01 X15.3507 Y13.7932
G01 X15.3496 Y13.7829
G01 X15.3420 Y13.7403
G01 X15.3401 Y13.7333
G01 X15.3330 Y13.7116
G01 X15.3242 Y13.6713
G01 X15.3139 Y13.5753
G01 X15.3139 Y12.5995
G01 X15.3134 Y12.5919
G01 X15.3120 Y12.5819
G01 X15.2990 Y12.5227
G01 X15.2966 Y12.5151
G01 X15.2926 Y12.5053
G01 X15.2876 Y12.4959
G01 X15.2833 Y12.4892
G01 X15.2767 Y12.4808
G01 X15.2292 Y12.4260
G01 X15.2197 Y12.4169
G01 X15.2092 Y12.4089
G01 X15.1977 Y12.4023
G01 X15.1855 Y12.3972
G01 X15.1135 Y12.3759
G01 X15.1061 Y12.3740
G01 X15.0936 Y12.3721
G01 X15.0835 Y12.3716
G01 X14.7124 Y12.3716
G01 X14.6002 Y12.3590
G01 X14.4579 Y12.3092
G01 X14.4114 Y12.2800
G01 X14.4111 Y12.2397
G01 X14.4098 Y12.2293
G01 X14.4076 Y12.2191
G01 X14.4052 Y12.2117
G01 X14.4023 Y12.2044
G01 X14.3963 Y12.1928
G01 X14.3889 Y12.1821
G01 X14.3802 Y12.1723
G01 X14.3745 Y12.1669
G01 X14.3684 Y12.1621
G01 X14.3619 Y12.1576
G01 X14.3552 Y12.1537
G01 X14.3481 Y12.1502
G01 X14.3409 Y12.1473
G01 X14.3283 Y12.1437
G01 X14.3180 Y12.1419
G01 X14.3076 Y12.1411
G01 X14.2424 Y12.1411
G01 X14.2236 Y12.1223
G01 X14.1434 Y11.9947
G01 X14.0936 Y11.8523
G01 X14.0809 Y11.7401
G01 X14.0809 Y10.4149
G01 X14.0936 Y10.3027
G01 X14.1162 Y10.2381
G01 X14.1198 Y10.2250
G01 X14.1215 Y10.2142
G01 X14.1275 Y10.1579
G01 X14.1281 Y10.1470
G01 X14.1276 Y10.1362
G01 X14.1260 Y10.1241
G01 X14.1238 Y10.1143
G01 X14.1207 Y10.1046
G01 X14.0898 Y10.0335
G01 X14.0849 Y10.0241
G01 X14.0791 Y10.0153
G01 X14.0742 Y10.0091
G01 X14.0688 Y10.0033
G01 X14.0610 Y9.9962
G01 X14.0547 Y9.9913
G01 X13.9922 Y9.9496
G01 X13.9830 Y9.9443
G01 X13.9734 Y9.9401
G01 X13.9659 Y9.9375
G01 X13.9582 Y9.9355
G01 X13.9504 Y9.9341
G01 X13.9425 Y9.9333
G01 X13.8649 Y9.9317
G01 X13.8547 Y9.9323
G01 X13.8422 Y9.9343
G01 X13.8240 Y9.9392
G01 X13.8071 Y9.9447
G01 X13.7916 Y9.9507
G01 X13.7826 Y9.9549
G01 X13.7491 Y9.9752
G01 X13.6050 Y10.0229
G01 X13.5196 Y10.0316
G01 X12.9054 Y10.0316
G01 X12.8196 Y10.0228
G01 X12.6760 Y9.9752
G01 X12.5478 Y9.8962
G01 X12.4413 Y9.7897
G01 X12.3623 Y9.6616
G01 X12.3147 Y9.5179
G01 X12.4403 Y9.4910
G01 X12.4336 Y9.4256
G01 X12.4336 Y8.4494
G01 X12.4403 Y8.3840
G01 X12.4788 Y8.2678
G01 X12.5095 Y8.2180
G01 X12.5176 Y8.2036
G01 X12.5232 Y8.1918
G01 X12.5375 Y8.1594
G01 X12.5440 Y8.1430
G01 X12.5485 Y8.1289
G01 X12.5579 Y8.0956
G01 X12.5611 Y8.0828
G01 X12.5639 Y8.0669
G01 X12.5700 Y8.0223
G01 X12.5708 Y8.0116
G01 X12.5711 Y7.9993
G01 X12.5711 Y7.0268
G01 X12.5957 Y6.9029
G01 X12.6441 Y6.7862
G01 X12.7143 Y6.6811
G01 X12.8293 Y6.5661
G01 X12.8393 Y6.5550
G01 X12.8482 Y6.5438
G01 X12.8599 Y6.5267
G01 X12.8955 Y6.4666
G01 X12.9049 Y6.4483
G01 X12.9124 Y6.4298
G01 X12.9161 Y6.4188
G01 X12.9241 Y6.3916
G01 X12.9285 Y6.3739
G01 X12.9310 Y6.3604
G01 X12.9362 Y6.3240
G01 X12.9381 Y6.3059
G01 X12.9386 Y6.2907
G01 X12.9386 Y6.0122
G01 X12.9405 Y5.9943
G01 X12.9688 Y5.9185
G01 X13.0147 Y5.8572
G01 X13.0760 Y5.8113
G01 X13.1518 Y5.7830
G01 X13.1697 Y5.7811
G01 X13.8389 Y5.7811
G01 X13.8577 Y5.7802
G01 X13.8965 Y5.7759
G01 X13.9116 Y5.7733
G01 X13.9307 Y5.7689
G01 X13.9449 Y5.7647
G01 X13.9584 Y5.7597
G01 X13.9759 Y5.7518
G01 X14.0308 Y5.7244
G01 X14.0425 Y5.7181
G01 X14.0525 Y5.7120
G01 X14.0643 Y5.7039
G01 X14.0736 Y5.6967
G01 X14.0848 Y5.6871
G01 X14.0937 Y5.6785
G01 X14.1018 Y5.6699
G01 X14.1095 Y5.6609
G01 X14.1186 Y5.6489
G01 X14.1658 Y5.5756
G01 X14.1750 Y5.5587
G01 X14.1830 Y5.5407
G01 X14.1897 Y5.5211
G01 X14.1952 Y5.5022
G01 X14.1985 Y5.4884
G01 X14.2010 Y5.4749
G01 X14.2062 Y5.4385
G01 X14.2081 Y5.4204
G01 X14.2086 Y5.4052
G01 X14.2086 Y4.2221
G01 X14.2188 Y4.1313
G01 X14.2591 Y4.0161
G01 X14.3240 Y3.9128
G01 X14.4103 Y3.8265
G01 X14.5136 Y3.7616
G01 X14.6288 Y3.7213
G01 X14.7193 Y3.7111
G01 X15.3304 Y3.7111
G01 X15.4213 Y3.7213
G01 X15.5364 Y3.7616
G01 X15.6397 Y3.8265
G01 X15.7260 Y3.9128
G01 X15.8116 Y4.0486
G01 X15.8295 Y4.0728
G01 X15.8375 Y4.0827
G01 X15.8569 Y4.1044
G01 X15.8697 Y4.1170
G01 X15.8834 Y4.1285
G01 X15.8979 Y4.1390
G01 X15.9608 Y4.1790
G01 X15.9786 Y4.1891
G01 X15.9947 Y4.1965
G01 X16.0143 Y4.2037
G01 X16.0440 Y4.2123
G01 X16.0549 Y4.2147
G01 X16.0659 Y4.2166
G01 X16.1093 Y4.2228
G01 X16.1230 Y4.2239
G01 X16.1356 Y4.2243
G01 X17.5741 Y4.2243
G01 X17.6739 Y4.2441
G01 X17.7678 Y4.2831
G01 X17.8524 Y4.3396
G01 X19.1417 Y5.6288
G01 X19.1513 Y5.6379
G01 X19.1648 Y5.6491
G01 X19.1814 Y5.6607
G01 X19.2418 Y5.6967
G01 X19.2572 Y5.7049
G01 X19.2731 Y5.7120
G01 X19.2895 Y5.7178
G01 X19.3260 Y5.7285
G01 X19.3369 Y5.7310
G01 X19.3479 Y5.7331
G01 X19.3908 Y5.7392
G01 X19.4105 Y5.7409
G01 X19.4487 Y5.7410
G01 X19.4855 Y5.7384
G01 X19.5066 Y5.7351
G01 X19.5252 Y5.7306
G01 X19.5701 Y5.7172
G01 X19.5841 Y5.7119
G01 X19.5973 Y5.7059
G01 X19.6156 Y5.6959
G01 X19.6274 Y5.6883
G01 X19.6409 Y5.6806
G01 X19.6527 Y5.6729
G01 X19.6643 Y5.6643
G01 X19.6746 Y5.6559
G01 X19.6842 Y5.6475
G01 X19.6925 Y5.6395
G01 X19.7020 Y5.6292
G01 X19.7262 Y5.6010
G01 X19.7384 Y5.5851
G01 X19.7449 Y5.5755
G01 X19.7528 Y5.5622
G01 X19.7620 Y5.5478
G01 X19.7676 Y5.5377
G01 X19.7727 Y5.5274
G01 X19.7800 Y5.5105
G01 X19.7856 Y5.4954
G01 X19.7963 Y5.4596
G01 X19.7990 Y5.4488
G01 X19.8016 Y5.4364
G01 X19.8049 Y5.4157
G01 X19.8078 Y5.3841
G01 X19.8085 Y5.3717
G01 X19.8086 Y4.1821
G01 X19.8188 Y4.0913
G01 X19.8591 Y3.9761
G01 X19.9240 Y3.8728
G01 X20.0103 Y3.7865
G01 X20.1136 Y3.7216
G01 X20.2288 Y3.6813
G01 X20.3193 Y3.6711
G01 X20.9304 Y3.6711
G01 X21.0213 Y3.6813
G01 X21.1364 Y3.7216
G01 X21.2396 Y3.7865
G01 X21.3264 Y3.8735
G01 X21.3583 Y3.9241
G01 X21.3695 Y3.9397
G01 X21.3885 Y3.9637
G01 X21.3968 Y3.9735
G01 X21.4133 Y3.9905
G01 X21.4265 Y4.0024
G01 X21.4405 Y4.0132
G01 X21.4530 Y4.0215
G01 X21.5113 Y4.0563
G01 X21.5267 Y4.0647
G01 X21.5398 Y4.0706
G01 X21.5563 Y4.0767
G01 X21.5871 Y4.0859
G01 X21.6008 Y4.0892
G01 X21.6143 Y4.0916
G01 X21.6547 Y4.0974
G01 X21.6688 Y4.0988
G01 X21.6800 Y4.0992
G01 X22.3639 Y4.0993
G01 X22.4878 Y4.1239
G01 X22.6045 Y4.1723
G01 X22.7096 Y4.2425
G01 X23.5657 Y5.0986
G01 X23.5754 Y5.1077
G01 X23.5864 Y5.1170
G01 X23.5984 Y5.1258
G01 X23.6105 Y5.1336
G01 X23.6682 Y5.1678
G01 X23.6865 Y5.1772
G01 X23.6996 Y5.1827
G01 X23.7136 Y5.1876
G01 X23.7448 Y5.1968
G01 X23.7580 Y5.2002
G01 X23.7719 Y5.2029
G01 X23.8109 Y5.2085
G01 X23.8315 Y5.2106
G01 X23.8442 Y5.2109
G01 X24.0131 Y5.2109
G01 X24.0785 Y5.2176
G01 X24.1947 Y5.2561
G01 X24.2253 Y5.2745
G01 X24.2595 Y5.2914
G01 X24.2705 Y5.2962
G01 X24.2801 Y5.3000
G01 X24.2933 Y5.3046
G01 X24.3068 Y5.3086
G01 X24.3211 Y5.3119
G01 X24.3350 Y5.3142
G01 X24.4094 Y5.3218
G01 X24.4235 Y5.3224
G01 X24.4381 Y5.3221
G01 X24.4521 Y5.3210
G01 X24.4641 Y5.3193
G01 X24.4750 Y5.3173
G01 X24.4859 Y5.3147
G01 X24.4995 Y5.3107
G01 X24.5100 Y5.3070
G01 X24.5240 Y5.3012
G01 X24.5914 Y5.2703
G01 X24.6068 Y5.2622
G01 X24.6216 Y5.2530
G01 X24.6357 Y5.2427
G01 X24.6489 Y5.2314
G01 X24.6573 Y5.2233
G01 X24.6652 Y5.2148
G01 X24.6727 Y5.2059
G01 X24.6798 Y5.1967
G01 X24.6872 Y5.1858
G01 X24.7287 Y5.1210
G01 X24.7380 Y5.1041
G01 X24.7448 Y5.0888
G01 X24.7506 Y5.0732
G01 X24.7577 Y5.0491
G01 X24.7604 Y5.0383
G01 X24.7626 Y5.0274
G01 X24.7687 Y4.9855
G01 X24.7704 Y4.9704
G01 X24.7711 Y4.9562
G01 X24.7709 Y4.2108
G01 X24.7691 Y4.1901
G01 X24.7655 Y4.1702
G01 X24.7487 Y4.1036
G01 X24.7442 Y4.0883
G01 X24.7381 Y4.0718
G01 X24.7319 Y4.0583
G01 X24.7147 Y4.0262
G01 X24.7070 Y4.0131
G01 X24.6990 Y4.0014
G01 X24.6755 Y3.9698
G01 X24.6623 Y3.9538
G01 X24.6536 Y3.9446
G01 X24.5590 Y3.8500
G01 X24.4419 Y3.6888
G01 X24.3513 Y3.5111
G01 X24.2898 Y3.3216
G01 X24.2586 Y3.1247
G01 X24.2586 Y2.9253
G01 X24.2898 Y2.7285
G01 X24.3514 Y2.5389
G01 X24.4419 Y2.3613
G01 X24.5590 Y2.2000
G01 X24.7000 Y2.0590
G01 X24.8613 Y1.9419
G01 X25.0389 Y1.8514
G01 X25.2285 Y1.7898
G01 X25.4253 Y1.7586
G01 X25.6247 Y1.7586
G01 X25.8216 Y1.7898
G01 X26.0112 Y1.8514
G01 X26.1888 Y1.9419
G01 X26.3500 Y2.0590
G01 X26.4910 Y2.2000
G01 X26.6082 Y2.3613
G01 X26.6986 Y2.5389
G01 X26.7603 Y2.7285
G01 X26.7914 Y2.9253
G01 X26.7914 Y3.1247
G01 X26.7603 Y3.3216
G01 X26.6986 Y3.5112
G01 X26.6082 Y3.6888
G01 X26.4910 Y3.8500
G01 X26.4093 Y3.9320
G01 X26.3960 Y3.9478
G01 X26.3892 Y3.9572
G01 X26.3828 Y3.9669
G01 X26.3470 Y4.0273
G01 X26.3415 Y4.0376
G01 X26.3352 Y4.0511
G01 X26.3281 Y4.0700
G01 X26.3184 Y4.1023
G01 X26.3146 Y4.1170
G01 X26.3120 Y4.1310
G01 X26.3054 Y4.1769
G01 X26.3043 Y4.1906
G01 X26.3039 Y4.2032
G01 X26.3039 Y5.5455
G01 X26.3042 Y5.5568
G01 X26.3055 Y5.5786
G01 X26.3164 Y5.6892
G01 X26.3164 Y6.6654
G01 X26.3098 Y6.7308
G01 X26.2712 Y6.8471
G01 X26.2079 Y6.9498
G01 X26.1225 Y7.0352
G01 X26.0197 Y7.0985
G01 X25.9035 Y7.1371
G01 X25.8381 Y7.1437
G01 X25.2369 Y7.1437
G01 X25.1715 Y7.1371
G01 X25.0553 Y7.0985
G01 X24.9525 Y7.0352
G01 X24.8876 Y6.9703
G01 X24.8751 Y6.9587
G01 X24.8472 Y6.9360
G01 X24.8363 Y6.9278
G01 X24.8179 Y6.9158
G01 X24.8027 Y6.9071
G01 X24.7892 Y6.9007
G01 X24.7729 Y6.8943
G01 X24.7107 Y6.8735
G01 X24.6979 Y6.8697
G01 X24.6809 Y6.8657
G01 X24.6667 Y6.8635
G01 X24.6476 Y6.8618
G01 X24.6309 Y6.8614
G01 X24.6112 Y6.8626
G01 X24.5946 Y6.8649
G01 X24.5130 Y6.8825
G01 X24.4993 Y6.8862
G01 X24.4887 Y6.8896
G01 X24.4760 Y6.8946
G01 X24.4631 Y6.9005
G01 X24.4373 Y6.9144
G01 X24.4231 Y6.9231
G01 X24.4127 Y6.9304
G01 X24.3770 Y6.9574
G01 X24.3687 Y6.9645
G01 X24.3608 Y6.9719
G01 X24.2975 Y7.0352
G01 X24.1947 Y7.0985
G01 X24.0785 Y7.1371
G01 X24.0131 Y7.1437
G01 X23.4119 Y7.1437
G01 X23.3465 Y7.1371
G01 X23.2303 Y7.0985
G01 X23.1275 Y7.0352
G01 X23.0422 Y6.9498
G01 X22.9788 Y6.8471
G01 X22.9403 Y6.7308
G01 X22.9336 Y6.6654
G01 X22.9336 Y6.4352
G01 X22.9330 Y6.4235
G01 X22.9320 Y6.4119
G01 X22.9303 Y6.4003
G01 X22.9280 Y6.3888
G01 X22.9092 Y6.3150
G01 X22.9027 Y6.2958
G01 X22.8958 Y6.2797
G01 X22.8906 Y6.2693
G01 X22.8772 Y6.2448
G01 X22.8678 Y6.2291
G01 X22.8600 Y6.2179
G01 X22.8380 Y6.1884
G01 X22.8265 Y6.1743
G01 X22.8161 Y6.1632
G01 X22.1473 Y5.4944
G01 X22.1333 Y5.4815
G01 X22.1175 Y5.4692
G01 X22.1029 Y5.4596
G01 X22.0485 Y5.4273
G01 X22.0397 Y5.4224
G01 X22.0293 Y5.4171
G01 X22.0156 Y5.4111
G01 X22.0021 Y5.4062
G01 X21.9683 Y5.3962
G01 X21.9521 Y5.3922
G01 X21.9386 Y5.3897
G01 X21.8978 Y5.3839
G01 X21.8858 Y5.3827
G01 X21.8737 Y5.3822
G01 X21.7580 Y5.3822
G01 X21.7388 Y5.3836
G01 X21.7193 Y5.3866
G01 X21.7031 Y5.3905
G01 X21.6783 Y5.3977
G01 X21.6608 Y5.4008
G01 X21.6409 Y5.4060
G01 X21.6298 Y5.4097
G01 X21.6167 Y5.4150
G01 X21.6062 Y5.4196
G01 X21.5941 Y5.4257
G01 X21.5843 Y5.4311
G01 X21.5696 Y5.4402
G01 X21.5589 Y5.4475
G01 X21.5497 Y5.4545
G01 X21.5348 Y5.4676
G01 X21.5267 Y5.4757
G01 X21.5197 Y5.4834
G01 X21.5040 Y5.4964
G01 X21.4935 Y5.5059
G01 X21.4802 Y5.5199
G01 X21.4697 Y5.5328
G01 X21.4525 Y5.5577
G01 X21.4438 Y5.5718
G01 X21.4237 Y5.6110
G01 X21.4169 Y5.6260
G01 X21.4120 Y5.6388
G01 X21.3909 Y5.6989
G01 X21.3260 Y5.8022
G01 X21.2397 Y5.8885
G01 X21.1364 Y5.9534
G01 X21.0212 Y5.9937
G01 X20.9304 Y6.0039
G01 X20.5383 Y6.0040
G01 X20.5178 Y6.0053
G01 X20.4869 Y6.0086
G01 X20.4712 Y6.0112
G01 X20.4550 Y6.0147
G01 X20.4437 Y6.0177
G01 X20.4295 Y6.0223
G01 X20.4186 Y6.0265
G01 X20.4041 Y6.0332
G01 X20.3493 Y6.0606
G01 X20.3376 Y6.0669
G01 X20.3276 Y6.0730
G01 X20.3179 Y6.0795
G01 X20.3086 Y6.0866
G01 X20.2986 Y6.0950
G01 X20.2891 Y6.1037
G01 X20.2812 Y6.1118
G01 X20.2737 Y6.1203
G01 X20.2667 Y6.1291
G01 X20.2560 Y6.1443
G01 X20.2143 Y6.2094
G01 X20.2051 Y6.2263
G01 X20.1971 Y6.2443
G01 X20.1903 Y6.2640
G01 X20.1848 Y6.2829
G01 X20.1815 Y6.2966
G01 X20.1791 Y6.3101
G01 X20.1736 Y6.3480
G01 X20.1718 Y6.3672
G01 X20.1714 Y6.3798
G01 X20.1714 Y7.8428
G01 X20.1695 Y7.8607
G01 X20.1412 Y7.9365
G01 X20.0953 Y7.9978
G01 X20.0340 Y8.0437
G01 X19.9582 Y8.0720
G01 X19.9403 Y8.0739
G01 X19.8222 Y8.0739
G01 X19.8012 Y8.0747
G01 X19.7895 Y8.0756
G01 X19.7779 Y8.0771
G01 X19.7363 Y8.0851
G01 X19.7254 Y8.0879
G01 X19.7122 Y8.0920
G01 X19.7017 Y8.0959
G01 X19.6913 Y8.1004
G01 X19.6763 Y8.1079
G01 X19.6620 Y8.1164
G01 X19.6491 Y8.1220
G01 X19.6387 Y8.1272
G01 X19.6285 Y8.1329
G01 X19.6161 Y8.1409
G01 X19.6046 Y8.1493
G01 X19.5956 Y8.1567
G01 X19.5670 Y8.1836
G01 X19.5588 Y8.1919
G01 X19.5511 Y8.2006
G01 X19.5385 Y8.2169
G01 X19.5277 Y8.2338
G01 X19.5221 Y8.2440
G01 X19.5171 Y8.2543
G01 X19.5076 Y8.2687
G01 X19.4991 Y8.2839
G01 X19.4941 Y8.2944
G01 X19.4886 Y8.3075
G01 X19.4848 Y8.3185
G01 X19.4815 Y8.3297
G01 X19.4774 Y8.3475
G01 X19.4735 Y8.3622
G01 X19.4712 Y8.3735
G01 X19.4687 Y8.3908
G01 X19.4675 Y8.4082
G01 X19.4678 Y8.4288
G01 X19.4698 Y8.4486
G01 X19.4695 Y8.4627
G01 X19.4701 Y8.4774
G01 X19.4721 Y8.4948
G01 X19.4753 Y8.5119
G01 X19.4806 Y8.5313
G01 X19.4868 Y8.5485
G01 X19.4914 Y8.5629
G01 X19.4979 Y8.5791
G01 X19.5043 Y8.5924
G01 X19.5113 Y8.6049
G01 X19.5193 Y8.6173
G01 X19.5261 Y8.6267
G01 X19.5350 Y8.6377
G01 X19.5421 Y8.6491
G01 X19.5484 Y8.6583
G01 X19.5606 Y8.6738
G01 X19.5749 Y8.6889
G01 X20.5517 Y9.6377
G01 X20.5654 Y9.6496
G01 X20.5828 Y9.6622
G01 X20.6358 Y9.6956
G01 X20.6459 Y9.7012
G01 X20.6586 Y9.7074
G01 X20.6746 Y9.7139
G01 X20.6886 Y9.7185
G01 X20.7023 Y9.7221
G01 X20.7167 Y9.7249
G01 X20.7364 Y9.7273
G01 X20.8119 Y9.7327
G01 X20.8325 Y9.7329
G01 X20.8441 Y9.7322
G01 X20.8557 Y9.7309
G01 X20.8754 Y9.7274
G01 X20.8867 Y9.7246
G01 X20.8978 Y9.7212
G01 X20.9171 Y9.7139
G01 X20.9328 Y9.7064
G01 X20.9992 Y9.6702
G01 X21.0156 Y9.6602
G01 X21.0316 Y9.6485
G01 X21.0443 Y9.6376
G01 X21.1025 Y9.5797
G01 X21.2053 Y9.5163
G01 X21.3215 Y9.4778
G01 X21.3869 Y9.4711
G01 X21.9881 Y9.4711
G01 X22.0535 Y9.4778
G01 X22.1697 Y9.5163
G01 X22.2725 Y9.5797
G01 X22.3579 Y9.6650
G01 X22.4212 Y9.7678
G01 X22.4597 Y9.8840
G01 X22.4664 Y9.9494
G01 X22.4667 Y9.9838
G01 X22.4675 Y9.9955
G01 X22.4688 Y10.0071
G01 X22.4727 Y10.0275
G01 X22.4900 Y10.0952
G01 X22.4933 Y10.1064
G01 X22.4973 Y10.1174
G01 X22.5056 Y10.1364
G01 X22.5248 Y10.1720
G01 X22.5306 Y10.1815
G01 X22.5367 Y10.1908
G01 X22.5664 Y10.2304
G01 X22.5735 Y10.2390
G01 X22.5829 Y10.2490
G01 X23.0240 Y10.6901
G01 X23.0361 Y10.7014
G01 X23.0596 Y10.7213
G01 X23.0704 Y10.7352
G01 X23.0816 Y10.7476
G01 X23.1603 Y10.8264
G01 X23.2442 Y10.9520
G01 X23.3020 Y11.0915
G01 X23.3314 Y11.2395
G01 X23.3317 Y15.1311
G01 X23.3328 Y15.1462
G01 X23.3344 Y15.1581
G01 X23.3450 Y15.2158
G01 X23.3489 Y15.2305
G01 X23.3525 Y15.2418
G01 X23.3598 Y15.2614
G01 X23.3647 Y15.2728
G01 X23.3745 Y15.2919
G01 X23.3808 Y15.3022
G01 X23.3876 Y15.3121
G01 X23.4345 Y15.3748
G01 X23.4452 Y15.3876
G01 X23.4550 Y15.3979
G01 X23.4631 Y15.4055
G01 X23.4735 Y15.4143
G01 X23.4929 Y15.4289
G01 X23.5020 Y15.4353
G01 X23.5162 Y15.4441
G01 X23.5574 Y15.4665
G01 X23.5682 Y15.4716
G01 X23.5786 Y15.4759
G01 X23.6465 Y15.5013
G01 X23.6692 Y15.5182
G01 X23.6817 Y15.5266
G01 X23.6972 Y15.5355
G01 X23.7133 Y15.5432
G01 X23.7238 Y15.5474
G01 X23.7935 Y15.5734
G01 X23.8070 Y15.5777
G01 X23.8232 Y15.5817
G01 X23.8341 Y15.5837
G01 X23.8452 Y15.5853
G01 X23.8611 Y15.5866
G01 X23.8737 Y15.5871
G01 X23.8849 Y15.5871
G01 X23.8960 Y15.5865
G01 X23.9071 Y15.5853
G01 X23.9206 Y15.5832
G01 X23.9973 Y15.5667
G01 X24.0081 Y15.5640
G01 X24.0187 Y15.5608
G01 X24.0344 Y15.5550
G01 X24.0469 Y15.5495
G01 X24.0568 Y15.5444
G01 X24.0781 Y15.5327
G01 X24.0876 Y15.5269
G01 X24.0967 Y15.5206
G01 X24.1295 Y15.4961
G01 X24.1401 Y15.4875
G01 X24.1535 Y15.4751
G01 X24.1972 Y15.4315
G01 X24.2059 Y15.4223
G01 X24.2181 Y15.4075
G01 X24.2294 Y15.3912
G01 X24.2351 Y15.3817
G01 X24.2497 Y15.3551
G01 X24.2656 Y15.3289
G01 X24.2728 Y15.3157
G01 X24.2802 Y15.2995
G01 X24.2871 Y15.2802
G01 X24.2967 Y15.2453
G01 X24.3007 Y15.2273
G01 X24.3075 Y15.1768
G01 X24.3085 Y15.1617
G01 X24.3086 Y15.1369
G01 X24.3153 Y15.0715
G01 X24.3538 Y14.9553
G01 X24.4172 Y14.8525
G01 X24.5025 Y14.7672
G01 X24.6053 Y14.7038
G01 X24.7215 Y14.6653
G01 X24.7869 Y14.6586
G01 X25.7631 Y14.6586
G01 X25.8285 Y14.6653
G01 X25.9447 Y14.7038
G01 X26.0475 Y14.7672
G01 X26.1328 Y14.8525
G01 X26.1964 Y14.9559
G01 X26.2347 Y15.0715
G01 X26.2414 Y15.1369
G01 X26.2414 Y15.7379
G01 X26.2344 Y15.8049
G01 X26.1959 Y15.9203
G01 X26.1329 Y16.0225
G01 X26.0475 Y16.1079
G01 X25.9447 Y16.1712
G01 X25.8285 Y16.2097
G01 X25.7631 Y16.2164
G01 X25.7287 Y16.2167
G01 X25.7170 Y16.2175
G01 X25.7054 Y16.2188
G01 X25.6939 Y16.2208
G01 X25.6824 Y16.2233
G01 X25.6215 Y16.2389
G01 X25.6087 Y16.2425
G01 X25.5922 Y16.2485
G01 X25.5790 Y16.2542
G01 X25.5672 Y16.2602
G01 X25.5379 Y16.2763
G01 X25.5284 Y16.2822
G01 X25.5192 Y16.2885
G01 X25.4845 Y16.3145
G01 X25.4736 Y16.3235
G01 X25.4625 Y16.3339
G01 X24.4636 Y17.3328
G01 X24.3380 Y17.4167
G01 X24.1986 Y17.4745
G01 X24.0738 Y17.4994
G01 X24.0563 Y17.5039
G01 X24.0393 Y17.5097
G01 X23.9842 Y17.5330
G01 X23.9655 Y17.5421
G01 X23.9524 Y17.5498
G01 X23.9354 Y17.5612
G01 X23.9239 Y17.5698
G01 X23.9126 Y17.5793
G01 X23.9015 Y17.5899
G01 X23.8916 Y17.6008
G01 X23.8428 Y17.6611
G01 X23.8305 Y17.6779
G01 X23.8202 Y17.6948
G01 X23.8115 Y17.7121
G01 X23.8000 Y17.7398
G01 X23.7966 Y17.7489
G01 X23.7899 Y17.7696
G01 X23.7537 Y17.8665
G01 X23.7078 Y17.9278
G01 X23.6465 Y17.9737
G01 X23.5707 Y18.0020
G01 X23.5528 Y18.0039
G01 X21.6628 Y18.0039
G01 X21.6520 Y18.0042
G01 X21.6395 Y18.0051
G01 X21.6114 Y18.0081
G01 X21.5945 Y18.0106
G01 X21.5776 Y18.0141
G01 X21.5662 Y18.0170
G01 X21.5550 Y18.0204
G01 X21.5440 Y18.0244
G01 X21.5255 Y18.0325
G01 X21.4603 Y18.0654
G01 X21.4502 Y18.0713
G01 X21.4404 Y18.0778
G01 X21.4310 Y18.0847
G01 X21.4207 Y18.0931
G01 X21.4100 Y18.1029
G01 X21.4005 Y18.1126
G01 X21.3661 Y18.1524
G01 X21.3590 Y18.1619
G01 X21.3507 Y18.1744
G01 X21.3435 Y18.1869
G01 X21.3381 Y18.1974
G01 X21.3299 Y18.2169
G01 X21.3227 Y18.2313
G01 X21.3171 Y18.2443
G01 X21.3115 Y18.2601
G01 X21.3048 Y18.2828
G01 X21.3015 Y18.2966
G01 X21.2991 Y18.3101
G01 X21.2933 Y18.3505
G01 X21.2918 Y18.3672
G01 X21.2914 Y18.3798
G01 X21.2914 Y19.0497
G01 X21.2921 Y19.0668
G01 X21.2958 Y19.1028
G01 X21.2981 Y19.1180
G01 X21.3030 Y19.1406
G01 X21.3087 Y19.1600
G01 X21.3140 Y19.1739
G01 X21.3207 Y19.1884
G01 X21.3501 Y19.2471
G01 X21.3558 Y19.2573
G01 X21.3620 Y19.2672
G01 X21.3706 Y19.2794
G01 X21.3806 Y19.2918
G01 X21.3904 Y19.3025
G01 X21.4024 Y19.3141
G01 X21.4333 Y19.3409
G01 X21.4446 Y19.3500
G01 X21.4591 Y19.3601
G01 X21.4772 Y19.3706
G01 X21.4903 Y19.3769
G01 X21.5045 Y19.3826
G01 X21.5188 Y19.3899
G01 X21.5318 Y19.3955
G01 X21.5476 Y19.4010
G01 X21.5704 Y19.4077
G01 X21.5841 Y19.4110
G01 X21.5991 Y19.4137
G01 X21.6411 Y19.4196
G01 X21.6603 Y19.4210
G01 X26.8068 Y19.4211
G01 X26.8278 Y19.4201
G01 X26.8675 Y19.4157
G01 X26.8846 Y19.4125
G01 X26.9084 Y19.4067
G01 X26.9252 Y19.4010
G01 X26.9415 Y19.3941
G01 X27.0035 Y19.3626
G01 X27.0153 Y19.3562
G01 X27.0324 Y19.3451
G01 X27.0419 Y19.3380
G01 X27.0510 Y19.3305
G01 X27.0702 Y19.3134
G01 X27.0821 Y19.3017
G01 X27.0906 Y19.2923
G01 X27.1179 Y19.2599
G01 X27.1247 Y19.2510
G01 X27.1310 Y19.2418
G01 X27.1737 Y19.1739
G01 X27.3324 Y18.9749
G01 X27.5124 Y18.7949
G01 X27.7114 Y18.6362
G01 X27.9270 Y18.5008
G01 X28.1563 Y18.3903
G01 X28.3966 Y18.3062
G01 X28.6455 Y18.2495
G01 X28.8974 Y18.2211
G01 X29.1523 Y18.2211
G01 X29.4053 Y18.2496
G01 X29.6534 Y18.3062
G01 X29.8937 Y18.3903
G01 X30.1231 Y18.5008
G01 X30.3386 Y18.6362
G01 X30.4653 Y18.7372
G01 X30.4792 Y18.7471
G01 X30.4937 Y18.7559
G01 X30.5492 Y18.7848
G01 X30.5625 Y18.7907
G01 X30.5767 Y18.7959
G01 X30.6141 Y18.8070
G01 X30.6304 Y18.8110
G01 X30.6438 Y18.8135
G01 X30.6873 Y18.8196
G01 X30.7009 Y18.8207
G01 X30.7136 Y18.8211
G01 X34.0530 Y18.8211
G01 X34.0747 Y18.8201
G01 X34.0921 Y18.8178
G01 X34.1093 Y18.8142
G01 X34.1852 Y18.7929
G01 X34.1993 Y18.7882
G01 X34.2126 Y18.7828
G01 X34.2231 Y18.7778
G01 X34.2362 Y18.7707
G01 X34.2516 Y18.7612
G01 X34.2628 Y18.7534
G01 X34.2739 Y18.7446
G01 X34.2841 Y18.7355
G01 X34.2969 Y18.7225
G01 X34.3449 Y18.6695
G01 X34.3543 Y18.6583
G01 X34.3648 Y18.6439
G01 X34.3728 Y18.6310
G01 X34.3798 Y18.6182
G01 X34.3909 Y18.5950
G01 X34.3952 Y18.5847
G01 X34.3990 Y18.5742
G01 X34.4110 Y18.5368
G01 X34.4145 Y18.5246
G01 X34.4188 Y18.5043
G01 X34.4657 Y18.2228
G01 X34.4811 Y18.1735
G01 X34.5236 Y18.1090
G01 X34.5820 Y18.0595
G01 X34.6527 Y18.0282
G01 X34.7038 Y18.0211
G01 X35.8462 Y18.0211
G01 X35.8973 Y18.0282
G01 X35.9680 Y18.0595
G01 X36.0264 Y18.1090
G01 X36.0690 Y18.1735
G01 X36.0843 Y18.2228
G01 X36.1339 Y18.5197
G01 X36.1365 Y18.5311
G01 X36.1404 Y18.5449
G01 X36.1442 Y18.5559
G01 X36.1499 Y18.5697
G01 X36.1810 Y18.6358
G01 X36.1891 Y18.6513
G01 X36.1966 Y18.6635
G01 X36.2033 Y18.6731
G01 X36.2125 Y18.6848
G01 X36.2224 Y18.6963
G01 X36.2304 Y18.7048
G01 X36.2412 Y18.7149
G01 X36.2501 Y18.7225
G01 X36.2594 Y18.7295
G01 X36.2693 Y18.7363
G01 X36.3287 Y18.7745
G01 X36.3444 Y18.7838
G01 X36.3594 Y18.7911
G01 X36.3749 Y18.7974
G01 X36.3893 Y18.8022
G01 X36.4166 Y18.8098
G01 X36.4330 Y18.8131
G01 X36.4734 Y18.8189
G01 X36.4870 Y18.8204
G01 X36.5012 Y18.8211
G01 X37.2316 Y18.8211
G01 X37.2483 Y18.8202
G01 X37.2678 Y18.8176
G01 X37.3329 Y18.8036
G01 X37.3529 Y18.7979
G01 X37.3718 Y18.7907
G01 X37.3876 Y18.7832
G01 X37.4055 Y18.7728
G01 X37.4174 Y18.7646
G01 X37.4291 Y18.7555
G01 X37.4863 Y18.7059
G01 X37.4967 Y18.6962
G01 X37.5069 Y18.6854
G01 X37.5161 Y18.6745
G01 X37.5248 Y18.6625
G01 X37.5325 Y18.6505
G01 X37.5397 Y18.6376
G01 X37.5459 Y18.6248
G01 X37.5515 Y18.6111
G01 X37.5560 Y18.5975
G01 X37.5761 Y18.5290
G01 X37.5807 Y18.5105
G01 X37.5836 Y18.4933
G01 X37.5850 Y18.4791
G01 X37.5856 Y18.4617
G01 X37.5850 Y18.4469
G01 X37.5828 Y18.4270
G01 X37.5787 Y18.4068
G01 X37.5552 Y18.3260
G01 X37.5503 Y18.3120
G01 X37.5448 Y18.2989
G01 X37.5370 Y18.2833
G01 X37.5295 Y18.2705
G01 X37.5230 Y18.2609
G01 X37.5144 Y18.2495
G01 X37.5069 Y18.2406
G01 X37.4968 Y18.2299
G01 X37.4851 Y18.2191
G01 X37.4268 Y18.1687
G01 X37.4111 Y18.1570
G01 X37.3940 Y18.1463
G01 X37.3792 Y18.1387
G01 X37.3543 Y18.1272
G01 X37.3342 Y18.1127
G01 X37.3233 Y18.1040
G01 X37.2923 Y18.0762
G01 X36.2663 Y17.0501
G01 X36.2501 Y17.0356
G01 X36.2270 Y17.0170
G01 X36.2178 Y17.0100
G01 X36.2012 Y16.9992
G01 X36.1912 Y16.9935
G01 X36.1809 Y16.9884
G01 X36.1675 Y16.9826
G01 X36.1513 Y16.9768
G01 X36.0734 Y16.9540
G01 X36.0601 Y16.9510
G01 X36.0461 Y16.9486
G01 X36.0325 Y16.9471
G01 X36.0183 Y16.9465
G01 X32.1022 Y16.9464
G01 X31.9929 Y16.9307
G01 X31.9580 Y16.9205
G01 X31.8666 Y16.8787
G01 X31.8283 Y16.8493
G01 X31.8122 Y16.8346
G01 X31.7679 Y16.7867
G01 X31.0664 Y15.8892
G01 X31.0115 Y15.7935
G01 X30.9980 Y15.7596
G01 X30.9730 Y15.6550
G01 X30.9722 Y15.6280
G01 X31.0003 Y8.9946
G01 X31.0165 Y8.8854
G01 X31.0269 Y8.8505
G01 X31.0706 Y8.7559
G01 X31.0847 Y8.7365
G01 X31.0933 Y8.7259
G01 X31.1206 Y8.6956
G01 X31.5349 Y8.2812
G01 X31.6233 Y8.2151
G01 X31.6552 Y8.1977
G01 X31.7528 Y8.1613
G01 X31.7772 Y8.1573
G01 X31.7911 Y8.1558
G01 X31.8327 Y8.1536
G01 X38.3852 Y8.1537
G01 X38.3947 Y8.1574
G01 X38.4056 Y8.1610
G01 X38.4253 Y8.1662
G01 X38.4448 Y8.1696
G01 X38.4562 Y8.1708
G01 X38.4677 Y8.1715
G01 X39.0370 Y8.1716
G01 X39.0641 Y8.1796
G01 X39.1521 Y8.2197
G01 X39.1896 Y8.2502
G01 X39.2017 Y8.2587
G01 X39.2139 Y8.2662
G01 X39.2322 Y8.2756
G01 X39.3005 Y8.3057
G01 X39.3140 Y8.3109
G01 X39.3248 Y8.3143
G01 X39.3358 Y8.3173
G01 X39.3469 Y8.3197
G01 X39.3606 Y8.3219
G01 X39.3719 Y8.3231
G01 X39.3832 Y8.3238
G01 X39.3946 Y8.3239
G01 X39.4090 Y8.3232
G01 X39.4203 Y8.3221
G01 X39.4935 Y8.3116
G01 X39.5091 Y8.3088
G01 X39.5235 Y8.3053
G01 X39.5346 Y8.3018
G01 X39.5455 Y8.2979
G01 X39.5563 Y8.2934
G01 X39.5667 Y8.2883
G01 X39.5842 Y8.2784
G01 X39.5939 Y8.2720
G01 X39.6033 Y8.2652
G01 X39.6135 Y8.2568
G01 X39.6718 Y8.2061
G01 X39.6860 Y8.1919
G01 X39.6992 Y8.1761
G01 X39.7092 Y8.1618
G01 X39.7194 Y8.1445
G01 X39.7284 Y8.1259
G01 X39.7350 Y8.1083
G01 X39.7456 Y8.0978
G01 X39.7569 Y8.0848
G01 X39.7673 Y8.0710
G01 X39.7766 Y8.0565
G01 X39.7834 Y8.0442
G01 X39.7884 Y8.0338
G01 X39.7940 Y8.0203
G01 X39.7980 Y8.0087
G01 X39.7978 Y8.2956
G01 X39.7654 Y8.3113
G01 X39.7322 Y8.3311
G01 X39.7179 Y8.3407
G01 X39.6957 Y8.3572
G01 X39.6867 Y8.3643
G01 X39.6580 Y8.3901
G01 X39.6448 Y8.4035
G01 X39.6198 Y8.4316
G01 X39.5949 Y8.4651
G01 X39.5886 Y8.4747
G01 X39.5738 Y8.4993
G01 X39.5648 Y8.5158
G01 X39.5484 Y8.5508
G01 X39.5442 Y8.5615
G01 X39.5349 Y8.5876
G01 X39.5291 Y8.6065
G01 X39.5224 Y8.6334
G01 X39.5199 Y8.6446
G01 X39.5141 Y8.6831
G01 X39.5124 Y8.7015
G01 X39.5109 Y8.7375
G01 X39.5109 Y9.6375
G01 X39.5125 Y9.6751
G01 X39.5141 Y9.6922
G01 X39.5185 Y9.7222
G01 X39.5205 Y9.7335
G01 X39.5287 Y9.7670
G01 X39.5322 Y9.7795
G01 X39.5436 Y9.8120
G01 X39.5484 Y9.8242
G01 X39.5629 Y9.8554
G01 X39.5688 Y9.8671
G01 X39.5917 Y9.9051
G01 X39.5991 Y9.9158
G01 X39.6198 Y9.9434
G01 X39.6283 Y9.9533
G01 X39.6516 Y9.9787
G01 X39.6610 Y9.9877
G01 X39.6857 Y10.0098
G01 X39.6856 Y10.0716
G01 X39.6746 Y10.0816
G01 X39.6664 Y10.0896
G01 X39.6405 Y10.1181
G01 X39.6297 Y10.1315
G01 X39.6084 Y10.1603
G01 X39.5999 Y10.1735
G01 X39.5852 Y10.1980
G01 X39.5796 Y10.2080
G01 X39.5637 Y10.2413
G01 X39.5574 Y10.2557
G01 X39.5458 Y10.2879
G01 X39.5417 Y10.3003
G01 X39.5303 Y10.3458
G01 X39.5281 Y10.3586
G01 X39.5229 Y10.3952
G01 X39.5219 Y10.4066
G01 X39.5205 Y10.4351
G01 X39.5202 Y10.4466
G01 X39.5202 Y11.6966
G01 X39.5205 Y11.7081
G01 X39.5219 Y11.7366
G01 X39.5229 Y11.7481
G01 X39.5283 Y11.7862
G01 X39.5316 Y11.8031
G01 X39.5417 Y11.8429
G01 X39.5453 Y11.8538
G01 X39.5554 Y11.8822
G01 X39.5619 Y11.8981
G01 X39.5796 Y11.9352
G01 X39.5955 Y11.9624
G01 X39.5091 Y11.8904
G01 X39.5091 Y8.9091
G01 X39.5086 Y8.8936
G01 X39.5068 Y8.8765
G01 X39.5043 Y8.8622
G01 X39.5018 Y8.8511
G01 X39.4821 Y8.7796
G01 X39.4786 Y8.7687
G01 X39.4746 Y8.7580
G01 X39.4701 Y8.7476
G01 X39.4650 Y8.7373
G01 X39.4587 Y8.7260
G01 X39.2388 Y8.3571
G01 X39.2263 Y8.3398
G01 X39.2146 Y8.3261
G01 X39.1691 Y8.2791
G01 X39.1540 Y8.2653
G01 X39.1382 Y8.2531
G01 X39.1210 Y8.2422
G01 X39.1109 Y8.2366
G01 X39.1006 Y8.2316
G01 X39.0821 Y8.2241
G01 X39.0696 Y8.2201
G01 X39.0026 Y8.2004
G01 X38.9879 Y8.1966
G01 X38.9740 Y8.1939
G01 X38.9629 Y8.1924
G01 X38.9493 Y8.1913
G01 X38.9367 Y8.1909
G01 X31.8264 Y8.1909
G01 X31.8059 Y8.1918
G01 X31.7708 Y8.1956
G01 X31.7538 Y8.1984
G01 X31.7341 Y8.2033
G01 X31.7231 Y8.2068
G01 X31.7124 Y8.2108
G01 X31.7018 Y8.2154
G01 X31.6915 Y8.2204
G01 X31.6230 Y8.2579
G01 X31.6062 Y8.2683
G01 X31.5908 Y8.2799
G01 X31.5824 Y8.2871
G01 X31.5732 Y8.2958
G01 X31.1426 Y8.7264
G01 X31.1353 Y8.7340
G01 X31.1273 Y8.7433
G01 X31.1089 Y8.7660
G01 X31.1005 Y8.7772
G01 X31.0941 Y8.7867
G01 X31.0867 Y8.7993
G01 X31.0814 Y8.8094
G01 X31.0767 Y8.8198
G01 X31.0724 Y8.8304
G01 X31.0687 Y8.8412
G01 X31.0456 Y8.9189
G01 X31.0430 Y8.9298
G01 X31.0405 Y8.9432
G01 X31.0391 Y8.9543
G01 X31.0380 Y8.9684
G01 X31.0095 Y15.6310
G01 X31.0103 Y15.6543
G01 X31.0112 Y15.6669
G01 X31.0134 Y15.6835
G01 X31.0161 Y15.6969
G01 X31.0205 Y15.7131
G01 X31.0260 Y15.7289
G01 X31.0523 Y15.7952
G01 X31.0573 Y15.8069
G01 X31.0622 Y15.8169
G01 X31.0676 Y15.8266
G01 X31.0734 Y15.8361
G01 X31.0797 Y15.8453
G01 X31.8033 Y16.7715
G01 X31.8152 Y16.7856
G01 X31.8301 Y16.8003
G01 X31.8619 Y16.8294
G01 X31.8730 Y16.8387
G01 X31.8824 Y16.8458
G01 X31.8949 Y16.8541
G01 X31.9074 Y16.8614
G01 X31.9180 Y16.8667
G01 X31.9317 Y16.8727
G01 X31.9484 Y16.8787
G01 X32.0264 Y16.9015
G01 X32.0397 Y16.9046
G01 X32.0537 Y16.9069
G01 X32.0647 Y16.9082
G01 X32.0784 Y16.9090
G01 X36.1781 Y16.9091
G01 X37.3244 Y18.0554
G01 X37.3336 Y18.0640
G01 X37.3418 Y18.0710
G01 X37.3657 Y18.0902
G01 X37.3776 Y18.0988
G01 X37.3894 Y18.1064
G01 X37.3995 Y18.1120
G01 X37.4126 Y18.1185
G01 X37.4256 Y18.1239
G01 X37.4434 Y18.1299
G01 X37.5104 Y18.1496
G01 X37.5227 Y18.1528
G01 X37.5361 Y18.1556
G01 X37.5501 Y18.1576
G01 X37.5637 Y18.1587
G01 X37.5764 Y18.1591
G01 X39.2282 Y18.1590
G01 X39.2441 Y18.1582
G01 X39.2766 Y18.1547
G01 X39.2905 Y18.1527
G01 X39.3018 Y18.1505
G01 X39.3185 Y18.1460
G01 X39.3323 Y18.1413
G01 X39.3453 Y18.1360
G01 X39.3608 Y18.1284
G01 X39.4235 Y18.0941
G01 X39.4345 Y18.0878
G01 X39.4438 Y18.0817
G01 X39.4548 Y18.0736
G01 X39.4635 Y18.0666
G01 X39.4718 Y18.0591
G01 X40.1542 Y17.3769
G01 X40.1617 Y17.3690
G01 X40.1699 Y17.3595
G01 X40.1876 Y17.3376
G01 X40.1988 Y17.3225
G01 X40.2050 Y17.3128
G01 X40.2108 Y17.3029
G01 X40.2160 Y17.2927
G01 X40.2208 Y17.2822
G01 X40.2250 Y17.2715
G01 X40.2287 Y17.2606
G01 X40.2515 Y17.1828
G01 X40.2556 Y17.1640
G01 X40.2572 Y17.1529
G01 X40.2584 Y17.1419
G01 X40.2591 Y17.1237
G01 X40.2591 Y14.4764
G01 X40.2582 Y14.4559
G01 X40.2544 Y14.4208
G01 X40.2517 Y14.4038
G01 X40.2491 Y14.3926
G01 X40.2460 Y14.3816
G01 X40.2392 Y14.3624
G01 X40.2347 Y14.3518
G01 X40.2296 Y14.3415
G01 X40.1934 Y14.2752
G01 X40.1834 Y14.2587
G01 X40.1736 Y14.2452
G01 X40.1646 Y14.2343
G01 X40.1542 Y14.2232
G01 X39.8184 Y13.8874
G01 X39.8184 Y12.2400
G01 X39.8180 Y12.2286
G01 X39.8171 Y12.2171
G01 X39.8156 Y12.2057
G01 X39.8136 Y12.1944
G01 X39.8110 Y12.1832
G01 X39.8079 Y12.1722
G01 X39.8042 Y12.1613
G01 X39.8002 Y12.1510
G01 X39.8254 Y12.1630
G01 X39.8360 Y12.1675
G01 X39.8706 Y12.1802
G01 X39.8886 Y12.1858
G01 X39.9188 Y12.1934
G01 X39.9372 Y12.1972
G01 X39.9758 Y12.2029
G01 X39.9876 Y12.2039
G01 X40.0220 Y12.2056
G01 X40.5866 Y12.2056
G01 X40.6277 Y12.2034
G01 X40.6391 Y12.2021
G01 X40.6673 Y12.1979
G01 X40.6858 Y12.1944
G01 X40.7231 Y12.1849
G01 X40.7341 Y12.1815
G01 X40.7634 Y12.1711
G01 X40.7809 Y12.1640
G01 X40.8179 Y12.1463
G01 X40.8280 Y12.1407
G01 X40.8538 Y12.1252
G01 X40.8703 Y12.1142
G01 X40.8945 Y12.0963
G01 X40.9035 Y12.0891
G01 X40.9340 Y12.0617
G01 X40.9472 Y12.0483
G01 X40.9664 Y12.0271
G01 X40.9738 Y12.0184
G01 X40.9985 Y11.9855
G01 X41.0088 Y11.9697
G01 X41.0247 Y11.9430
G01 X41.0302 Y11.9329
G01 X41.0490 Y11.8929
G01 X41.0533 Y11.8822
G01 X41.0629 Y11.8553
G01 X41.0692 Y11.8348
G01 X41.0765 Y11.8056
G01 X41.0789 Y11.7944
G01 X41.0789 Y12.0581
G01 X41.0659 Y12.0643
G01 X41.0557 Y12.0697
G01 X41.0226 Y12.0894
G01 X41.0084 Y12.0990
G01 X40.9776 Y12.1221
G01 X40.9677 Y12.1306
G01 X40.9465 Y12.1498
G01 X40.9383 Y12.1578
G01 X40.9105 Y12.1881
G01 X40.8987 Y12.2027
G01 X40.8802 Y12.2278
G01 X40.8721 Y12.2399
G01 X40.8524 Y12.2730
G01 X40.8418 Y12.2942
G01 X40.8315 Y12.3070
G01 X40.8237 Y12.3183
G01 X40.8150 Y12.3327
G01 X40.8084 Y12.3454
G01 X40.8017 Y12.3608
G01 X40.7954 Y12.3791
G01 X40.7742 Y12.4515
G01 X40.7715 Y12.4623
G01 X40.7693 Y12.4733
G01 X40.7668 Y12.4928
G01 X40.7659 Y12.5136
G01 X40.7665 Y13.6416
G01 X40.7670 Y13.6558
G01 X40.7712 Y13.6971
G01 X40.7746 Y13.7172
G01 X40.7780 Y13.7309
G01 X40.7814 Y13.7419
G01 X40.7853 Y13.7527
G01 X40.7902 Y13.7644
G01 X40.7905 Y13.7765
G01 X40.7919 Y13.8066
G01 X40.7941 Y13.8279
G01 X40.7983 Y13.8562
G01 X40.8003 Y13.8675
G01 X40.8091 Y13.9033
G01 X40.8126 Y13.9159
G01 X40.8249 Y13.9507
G01 X40.8296 Y13.9629
G01 X40.8496 Y14.0052
G01 X40.8560 Y14.0166
G01 X40.8752 Y14.0481
G01 X40.8817 Y14.0576
G01 X40.9013 Y14.0838
G01 X40.9123 Y14.0971
G01 X40.9383 Y14.1255
G01 X40.9477 Y14.1345
G01 X40.9752 Y14.1591
G01 X40.9854 Y14.1672
G01 X41.0152 Y14.1890
G01 X41.0262 Y14.1960
G01 X41.0557 Y14.2136
G01 X41.0696 Y14.2208
G01 X41.1031 Y14.2363
G01 X41.1152 Y14.2411
G01 X41.1501 Y14.2533
G01 X41.1626 Y14.2568
G01 X41.1985 Y14.2656
G01 X41.2098 Y14.2676
G01 X41.2425 Y14.2724
G01 X41.2596 Y14.2740
G01 X41.2993 Y14.2757
G01 X41.8535 Y14.2757
G01 X41.8893 Y14.2740
G01 X41.9065 Y14.2724
G01 X41.9471 Y14.2662
G01 X41.9769 Y14.2591
G01 X44.7745 Y14.2591
G01 X44.7950 Y14.2582
G01 X44.8302 Y14.2544
G01 X44.8472 Y14.2516
G01 X44.8615 Y14.2483
G01 X44.8804 Y14.2424
G01 X44.8911 Y14.2382
G01 X44.9016 Y14.2335
G01 X44.9133 Y14.2276
G01 X44.9746 Y14.1940
G01 X44.9876 Y14.1863
G01 X44.9994 Y14.1783
G01 X45.0126 Y14.1681
G01 X45.0228 Y14.1590
G01 X46.0137 Y13.1667
G01 X46.0272 Y13.1512
G01 X46.0464 Y13.1273
G01 X46.0533 Y13.1181
G01 X46.0642 Y13.1009
G01 X46.0697 Y13.0908
G01 X46.0747 Y13.0805
G01 X46.0801 Y13.0675
G01 X46.0849 Y13.0536
G01 X46.1057 Y12.9826
G01 X46.1102 Y12.9649
G01 X46.1130 Y12.9484
G01 X46.1147 Y12.9318
G01 X46.1152 Y12.9166
G01 X46.1124 Y9.4852
G01 X46.1115 Y9.4679
G01 X46.1072 Y9.4292
G01 X46.1035 Y9.4101
G01 X46.0979 Y9.3910
G01 X46.0920 Y9.3752
G01 X46.0850 Y9.3598
G01 X46.0505 Y9.2944
G01 X46.0443 Y9.2833
G01 X46.0370 Y9.2718
G01 X46.0287 Y9.2603
G01 X46.0200 Y9.2497
G01 X46.0114 Y9.2404
G01 X44.7887 Y7.9796
G01 X44.7800 Y7.9711
G01 X44.7701 Y7.9624
G01 X44.7436 Y7.9408
G01 X44.7316 Y7.9319
G01 X44.7168 Y7.9225
G01 X44.7013 Y7.9142
G01 X44.6882 Y7.9083
G01 X44.6718 Y7.9022
G01 X44.5883 Y7.8778
G01 X44.5690 Y7.8738
G01 X44.5499 Y7.8715
G01 X44.5316 Y7.8708
G01 X43.9821 Y7.8708
G01 X42.3306 Y6.2773
G01 X42.3249 Y6.2578
G01 X42.3109 Y6.2191
G01 X42.3063 Y6.2086
G01 X42.2935 Y6.1814
G01 X42.2841 Y6.1639
G01 X42.2686 Y6.1381
G01 X42.2624 Y6.1284
G01 X42.2381 Y6.0953
G01 X42.2260 Y6.0809
G01 X42.2051 Y6.0578
G01 X42.1970 Y6.0496
G01 X42.1642 Y6.0200
G01 X42.1552 Y6.0129
G01 X42.1322 Y5.9958
G01 X42.1145 Y5.9839
G01 X42.0886 Y5.9684
G01 X42.0786 Y5.9628
G01 X42.0363 Y5.9428
G01 X42.0256 Y5.9386
G01 X41.9987 Y5.9290
G01 X41.9782 Y5.9227
G01 X41.9490 Y5.9154
G01 X41.9378 Y5.9129
G01 X41.8908 Y5.9060
G01 X41.8785 Y5.9050
G01 X41.8442 Y5.9035
G01 X41.2858 Y5.9035
G01 X41.2417 Y5.9057
G01 X41.2303 Y5.9071
G01 X41.1979 Y5.9119
G01 X41.1835 Y5.9148
G01 X41.1533 Y5.9223
G01 X41.1328 Y5.9284
G01 X41.1044 Y5.9386
G01 X41.0938 Y5.9428
G01 X41.0589 Y5.9591
G01 X41.0436 Y5.9671
G01 X41.0085 Y5.9884
G01 X40.9991 Y5.9949
G01 X40.9749 Y6.0129
G01 X40.9595 Y6.0254
G01 X40.9372 Y6.0457
G01 X40.9289 Y6.0537
G01 X40.9029 Y6.0820
G01 X40.8904 Y6.0974
G01 X40.8724 Y6.1216
G01 X40.8659 Y6.1310
G01 X40.8446 Y6.1661
G01 X40.8366 Y6.1814
G01 X40.8203 Y6.2163
G01 X40.8161 Y6.2269
G01 X40.8059 Y6.2553
G01 X40.8002 Y6.2743
G01 X40.7929 Y6.3035
G01 X40.7904 Y6.3147
G01 X40.7846 Y6.3528
G01 X40.7828 Y6.3699
G01 X40.7810 Y6.4083
G01 X40.7809 Y6.4578
G01 X40.7794 Y6.4732
G01 X40.7789 Y6.4884
G01 X40.7789 Y7.7385
G01 X40.7797 Y7.7582
G01 X40.7820 Y7.7762
G01 X40.7942 Y7.8360
G01 X40.7972 Y7.8487
G01 X40.8005 Y7.8597
G01 X40.8043 Y7.8706
G01 X40.8086 Y7.8813
G01 X40.8134 Y7.8917
G01 X40.8230 Y7.9091
G01 X40.8291 Y7.9188
G01 X40.8358 Y7.9282
G01 X40.8439 Y7.9385
G01 X40.8888 Y7.9920
G01 X40.8989 Y8.0033
G01 X40.9090 Y8.0133
G01 X40.9193 Y8.0223
G01 X40.9305 Y8.0310
G01 X40.9645 Y8.0539
G01 X40.9761 Y8.0631
G01 X41.0059 Y8.0849
G01 X41.0156 Y8.0911
G01 X41.0400 Y8.1058
G01 X41.0538 Y8.1135
G01 X41.0789 Y8.1302
G01 X41.0789 Y10.3488
G01 X41.0761 Y10.3361
G01 X41.0669 Y10.3003
G01 X41.0634 Y10.2894
G01 X41.0533 Y10.2610
G01 X41.0467 Y10.2451
G01 X41.0335 Y10.2169
G01 X41.0290 Y10.2080
G01 X41.0226 Y10.1966
G01 X41.0079 Y10.1722
G01 X41.0017 Y10.1625
G01 X40.9799 Y10.1327
G01 X40.9718 Y10.1225
G01 X40.9404 Y10.0878
G01 X40.9310 Y10.0787
G01 X40.9043 Y10.0548
G01 X40.9043 Y9.9315
G01 X40.9234 Y9.9051
G01 X40.9434 Y9.8721
G01 X40.9521 Y9.8554
G01 X40.9643 Y9.8295
G01 X40.9688 Y9.8189
G01 X40.9828 Y9.7795
G01 X40.9859 Y9.7685
G01 X40.9926 Y9.7416
G01 X40.9968 Y9.7206
G01 X41.0009 Y9.6922
G01 X41.0024 Y9.6777
G01 X41.0041 Y9.6375
G01 X41.0041 Y8.7375
G01 X41.0038 Y8.7260
G01 X41.0019 Y8.6916
G01 X40.9968 Y8.6544
G01 X40.9932 Y8.6359
G01 X40.9844 Y8.6010
G01 X40.9802 Y8.5876
G01 X40.9678 Y8.5537
G01 X40.9521 Y8.5196
G01 X40.9462 Y8.5079
G01 X40.9278 Y8.4769
G01 X40.9202 Y8.4651
G01 X40.9013 Y8.4395
G01 X40.8932 Y8.4292
G01 X40.8692 Y8.4024
G01 X40.8571 Y8.3901
G01 X40.8327 Y8.3680
G01 X40.8214 Y8.3588
G01 X40.7903 Y8.3359
G01 X40.7674 Y8.3218
G01 X40.7674 Y6.0617
G01 X40.7997 Y6.0466
G01 X40.8114 Y6.0407
G01 X40.8515 Y6.0167
G01 X40.8622 Y6.0092
G01 X40.8918 Y5.9870
G01 X40.9005 Y5.9796
G01 X40.9228 Y5.9593
G01 X40.9351 Y5.9472
G01 X40.9560 Y5.9242
G01 X40.9645 Y5.9143
G01 X40.9706 Y5.9064
G01 X40.9891 Y5.8814
G01 X40.9956 Y5.8718
G01 X41.0141 Y5.8411
G01 X41.0223 Y5.8260
G01 X41.0363 Y5.7964
G01 X41.0409 Y5.7859
G01 X41.0567 Y5.7418
G01 X41.0602 Y5.7292
G01 X41.0690 Y5.6934
G01 X41.0710 Y5.6821
G01 X41.0755 Y5.6522
G01 X41.0773 Y5.6343
G01 X41.0791 Y5.5967
G01 X41.0791 Y5.4249
G01 X41.6127 Y5.4249
G01 X43.8938 Y7.7060
G01 X43.9205 Y7.7303
G01 X43.9338 Y7.7411
G01 X43.9630 Y7.7625
G01 X43.9950 Y7.7821
G01 X44.0115 Y7.7911
G01 X44.0441 Y7.8064
G01 X44.0572 Y7.8116
G01 X44.0887 Y7.8228
G01 X44.0997 Y7.8261
G01 X44.1291 Y7.8335
G01 X44.1501 Y7.8376
G01 X44.1873 Y7.8427
G01 X44.2317 Y7.8449
G01 X46.8009 Y7.8449
G01 X46.8009 Y7.9075
G01 X46.8013 Y7.9206
G01 X46.8032 Y7.9403
G01 X46.8070 Y7.9603
G01 X46.8106 Y7.9740
G01 X46.8141 Y7.9849
G01 X46.8182 Y7.9956
G01 X46.8241 Y8.0090
G01 X46.8293 Y8.0192
G01 X46.8364 Y8.0314
G01 X46.8427 Y8.0410
G01 X46.8495 Y8.0503
G01 X46.8567 Y8.0592
G01 X46.8666 Y8.0700
G01 X46.8747 Y8.0781
G01 X46.8853 Y8.0875
G01 X46.8943 Y8.0946
G01 X46.9063 Y8.1030
G01 X46.9183 Y8.1104
G01 X46.9284 Y8.1159
G01 X46.9416 Y8.1221
G01 X46.9522 Y8.1265
G01 X46.9631 Y8.1303
G01 X46.9766 Y8.1342
G01 X46.9909 Y8.1374
G01 X47.0022 Y8.1393
G01 X47.0162 Y8.1408
G01 X47.0277 Y8.1415
G01 X48.8350 Y8.1416
G01 X48.8538 Y8.1408
G01 X48.8709 Y8.1388
G01 X48.8878 Y8.1356
G01 X48.9045 Y8.1310
G01 X48.9207 Y8.1253
G01 X48.9365 Y8.1184
G01 X48.9517 Y8.1104
G01 X48.9664 Y8.1013
G01 X48.9803 Y8.0911
G01 X48.9934 Y8.0799
G01 X49.0074 Y8.0659
G01 X49.0186 Y8.0528
G01 X49.0288 Y8.0389
G01 X49.0379 Y8.0242
G01 X49.0459 Y8.0090
G01 X49.0528 Y7.9932
G01 X49.0585 Y7.9770
G01 X49.0631 Y7.9603
G01 X49.0663 Y7.9434
G01 X49.0683 Y7.9263
G01 X49.0691 Y7.9091
G01 X49.0689 Y6.7976
G01 X49.0681 Y6.7861
G01 X49.0668 Y6.7747
G01 X49.0649 Y6.7634
G01 X49.0624 Y6.7522
G01 X49.0595 Y6.7411
G01 X49.0559 Y6.7301
G01 X49.0519 Y6.7194
G01 X49.0473 Y6.7089
G01 X49.0422 Y6.6986
G01 X49.0366 Y6.6885
G01 X49.0305 Y6.6788
G01 X49.0240 Y6.6693
G01 X49.0169 Y6.6602
G01 X49.0095 Y6.6515
G01 X49.0016 Y6.6431
G01 X48.9934 Y6.6351
G01 X48.9778 Y6.6220
G01 X48.9616 Y6.6106
G01 X48.9517 Y6.6046
G01 X48.9417 Y6.5991
G01 X48.9231 Y6.5907
G01 X48.9045 Y6.5840
G01 X48.8934 Y6.5808
G01 X48.8822 Y6.5782
G01 X48.8709 Y6.5762
G01 X48.8595 Y6.5747
G01 X48.8392 Y6.5735
G01 X47.0334 Y6.5734
G01 X47.0220 Y6.5738
G01 X47.0105 Y6.5747
G01 X46.9991 Y6.5762
G01 X46.9878 Y6.5782
G01 X46.9766 Y6.5808
G01 X46.9656 Y6.5840
G01 X46.9547 Y6.5877
G01 X46.9444 Y6.5917
G01 X46.9563 Y6.5664
G01 X46.9609 Y6.5559
G01 X46.9736 Y6.5212
G01 X46.9792 Y6.5033
G01 X46.9868 Y6.4730
G01 X46.9906 Y6.4546
G01 X46.9962 Y6.4161
G01 X46.9973 Y6.4043
G01 X46.9988 Y6.3740
G01 X46.9991 Y6.3625
G01 X46.9991 Y5.8083
G01 X46.9974 Y5.7725
G01 X46.9962 Y5.7585
G01 X46.9906 Y5.7204
G01 X46.9872 Y5.7035
G01 X46.9776 Y5.6662
G01 X46.9741 Y5.6553
G01 X46.9639 Y5.6269
G01 X46.9574 Y5.6110
G01 X46.9397 Y5.5739
G01 X46.9341 Y5.5639
G01 X46.9186 Y5.5381
G01 X46.9076 Y5.5216
G01 X46.8897 Y5.4974
G01 X46.8825 Y5.4884
G01 X46.8568 Y5.4597
G01 X46.8447 Y5.4475
G01 X46.8142 Y5.4200
G01 X46.8052 Y5.4129
G01 X46.7810 Y5.3949
G01 X46.7645 Y5.3839
G01 X46.7386 Y5.3684
G01 X46.7286 Y5.3628
G01 X46.6939 Y5.3462
G01 X46.6780 Y5.3395
G01 X46.6393 Y5.3258
G01 X46.6282 Y5.3227
G01 X46.5990 Y5.3154
G01 X46.5780 Y5.3113
G01 X46.5498 Y5.3071
G01 X46.5384 Y5.3057
G01 X46.4942 Y5.3035
G01 X45.2400 Y5.3034
G01 X45.2285 Y5.3037
G01 X45.2000 Y5.3051
G01 X45.1886 Y5.3060
G01 X45.1479 Y5.3119
G01 X45.1335 Y5.3148
G01 X45.1033 Y5.3223
G01 X45.0853 Y5.3276
G01 X45.0544 Y5.3386
G01 X45.0438 Y5.3428
G01 X45.0037 Y5.3616
G01 X44.9914 Y5.3684
G01 X44.9633 Y5.3853
G01 X44.9512 Y5.3934
G01 X44.9376 Y5.4034
G01 X44.5258 Y4.9917
G01 X44.5377 Y4.9820
G01 X44.5643 Y4.9577
G01 X44.5724 Y4.9496
G01 X44.5917 Y4.9283
G01 X44.6002 Y4.9184
G01 X44.6063 Y4.9106
G01 X44.6233 Y4.8875
G01 X44.6328 Y4.8731
G01 X44.6471 Y4.8494
G01 X44.6527 Y4.8393
G01 X44.6676 Y4.8083
G01 X44.6728 Y4.7963
G01 X44.6846 Y4.7639
G01 X44.6887 Y4.7515
G01 X44.6973 Y4.7182
G01 X44.7001 Y4.7054
G01 X44.7054 Y4.6714
G01 X44.7069 Y4.6584
G01 X44.7091 Y4.6141
G01 X44.7091 Y4.0859
G01 X44.7074 Y4.0474
G01 X44.7054 Y4.0287
G01 X44.6995 Y3.9915
G01 X44.6887 Y3.9485
G01 X44.6846 Y3.9361
G01 X44.6728 Y3.9037
G01 X44.6571 Y3.8696
G01 X44.6512 Y3.8579
G01 X44.6463 Y3.8493
G01 X44.6315 Y3.8247
G01 X44.6233 Y3.8126
G01 X44.6002 Y3.7816
G01 X44.5928 Y3.7729
G01 X44.5742 Y3.7524
G01 X44.5590 Y3.7373
G01 X44.5377 Y3.7180
G01 X44.5264 Y3.7088
G01 X44.5021 Y3.6907
G01 X44.4926 Y3.6842
G01 X44.4569 Y3.6626
G01 X44.4467 Y3.6573
G01 X44.4193 Y3.6443
G01 X44.4010 Y3.6367
G01 X44.3750 Y3.6274
G01 X44.3640 Y3.6238
G01 X44.3235 Y3.6136
G01 X44.3081 Y3.6108
G01 X44.2733 Y3.6059
G01 X44.2610 Y3.6049
G01 X44.2250 Y3.6034
G01 X43.3234 Y3.6034
G01 X43.2791 Y3.6056
G01 X43.2677 Y3.6069
G01 X43.2378 Y3.6114
G01 X43.2209 Y3.6149
G01 X43.1860 Y3.6238
G01 X43.1505 Y3.6361
G01 X43.1383 Y3.6409
G01 X43.1057 Y3.6561
G01 X43.0932 Y3.6626
G01 X43.0622 Y3.6811
G01 X43.0479 Y3.6907
G01 X43.0236 Y3.7088
G01 X43.0092 Y3.7208
G01 X42.9838 Y3.7441
G01 X42.9583 Y3.7717
G01 X42.9463 Y3.7861
G01 X42.9249 Y3.8151
G01 X42.9172 Y3.8269
G01 X42.9001 Y3.8557
G01 X42.8936 Y3.8682
G01 X42.8784 Y3.9008
G01 X42.8654 Y3.9361
G01 X42.8613 Y3.9485
G01 X42.8524 Y3.9834
G01 X42.8495 Y3.9972
G01 X42.8441 Y4.0331
G01 X42.8424 Y4.0515
G01 X42.8409 Y4.0875
G01 X42.8410 Y4.6167
G01 X42.8425 Y4.6501
G01 X42.8437 Y4.6641
G01 X42.8489 Y4.6998
G01 X42.8524 Y4.7166
G01 X42.8613 Y4.7515
G01 X42.8736 Y4.7870
G01 X42.8807 Y4.8045
G01 X42.8948 Y4.8342
G01 X42.9030 Y4.8494
G01 X42.9217 Y4.8801
G01 X42.9282 Y4.8896
G01 X42.9447 Y4.9118
G01 X42.9555 Y4.9252
G01 X42.9816 Y4.9537
G01 X43.0092 Y4.9792
G01 X43.0236 Y4.9913
G01 X43.0501 Y5.0108
G01 X43.0644 Y5.0203
G01 X43.0882 Y5.0346
G01 X43.0982 Y5.0402
G01 X43.1331 Y5.0568
G01 X43.1436 Y5.0613
G01 X43.1540 Y5.0651
G01 X43.1542 Y5.1006
G01 X43.1563 Y5.1431
G01 X43.1577 Y5.1577
G01 X43.1637 Y5.1982
G01 X43.1660 Y5.2111
G01 X43.1771 Y5.2565
G01 X43.1814 Y5.2715
G01 X43.1962 Y5.3131
G01 X43.2009 Y5.3253
G01 X43.2252 Y5.3765
G01 X43.2316 Y5.3879
G01 X43.2558 Y5.4279
G01 X43.2623 Y5.4373
G01 X43.2861 Y5.4694
G01 X43.2987 Y5.4847
G01 X43.3324 Y5.5215
G01 X44.3377 Y6.5266
G01 X44.3680 Y6.5542
G01 X44.3779 Y6.5627
G01 X44.4153 Y6.5907
G01 X44.4261 Y6.5982
G01 X44.4660 Y6.6224
G01 X44.4774 Y6.6288
G01 X44.5196 Y6.6489
G01 X44.5315 Y6.6542
G01 X44.5794 Y6.6715
G01 X44.5974 Y6.6768
G01 X44.6347 Y6.6861
G01 X44.6459 Y6.6886
G01 X44.6936 Y6.6958
G01 X44.7108 Y6.6976
G01 X44.7559 Y6.6998
G01 X44.8592 Y6.7000
G01 X44.8750 Y6.7172
G01 X44.8830 Y6.7254
G01 X44.9095 Y6.7496
G01 X44.9203 Y6.7587
G01 X44.9478 Y6.7792
G01 X44.9585 Y6.7867
G01 X44.9900 Y6.8058
G01 X45.0037 Y6.8134
G01 X45.0347 Y6.8282
G01 X45.0466 Y6.8334
G01 X45.0813 Y6.8461
G01 X45.0937 Y6.8501
G01 X45.1295 Y6.8593
G01 X45.1422 Y6.8621
G01 X45.1892 Y6.8690
G01 X45.2016 Y6.8700
G01 X45.2400 Y6.8716
G01 X46.4900 Y6.8716
G01 X46.5326 Y6.8697
G01 X46.5472 Y6.8683
G01 X46.5780 Y6.8638
G01 X46.5990 Y6.8597
G01 X46.6282 Y6.8523
G01 X46.6393 Y6.8492
G01 X46.6810 Y6.8344
G01 X46.6915 Y6.8299
G01 X46.7197 Y6.8166
G01 X46.7364 Y6.8079
G01 X46.7715 Y6.7867
G01 X46.7810 Y6.7801
G01 X46.8054 Y6.7620
G01 X46.8025 Y6.7804
G01 X46.8011 Y6.7976
G01 X46.8009 Y6.8765
G01 X44.4338 Y6.8765
G01 X42.1556 Y4.5983
G01 X42.1291 Y4.5739
G01 X42.1171 Y4.5638
G01 X42.0835 Y4.5390
G01 X42.0515 Y4.5193
G01 X42.0350 Y4.5103
G01 X42.0076 Y4.4973
G01 X41.9971 Y4.4928
G01 X41.9548 Y4.4777
G01 X41.9189 Y4.4683
G01 X41.9005 Y4.4645
G01 X41.8622 Y4.4590
G01 X41.8492 Y4.4580
G01 X41.8132 Y4.4565
G01 X41.0791 Y4.4565
G01 X41.0791 Y4.3409
G01 X41.0775 Y4.3041
G01 X41.0765 Y4.2911
G01 X41.0752 Y4.2812
G01 X41.0706 Y4.2504
G01 X41.0678 Y4.2360
G01 X41.0598 Y4.2043
G01 X41.0567 Y4.1932
G01 X41.0445 Y4.1584
G01 X41.0387 Y4.1439
G01 X41.0235 Y4.1114
G01 X41.0170 Y4.0989
G01 X40.9973 Y4.0658
G01 X40.9876 Y4.0516
G01 X40.9697 Y4.0274
G01 X40.9609 Y4.0164
G01 X40.9351 Y3.9878
G01 X40.9217 Y3.9746
G01 X40.8985 Y3.9537
G01 X40.8839 Y3.9419
G01 X40.8541 Y3.9201
G01 X40.8445 Y3.9139
G01 X40.8200 Y3.8992
G01 X40.8035 Y3.8902
G01 X40.7687 Y3.8738
G01 X40.7556 Y3.8686
G01 X40.7218 Y3.8566
G01 X40.7067 Y3.8523
G01 X40.6709 Y3.8435
G01 X40.6596 Y3.8415
G01 X40.6272 Y3.8367
G01 X40.6100 Y3.8351
G01 X40.5700 Y3.8334
G01 X40.0158 Y3.8335
G01 X39.9774 Y3.8353
G01 X39.9603 Y3.8371
G01 X39.9222 Y3.8429
G01 X39.9110 Y3.8454
G01 X39.8833 Y3.8523
G01 X39.8653 Y3.8576
G01 X39.8291 Y3.8706
G01 X39.8161 Y3.8762
G01 X39.7837 Y3.8916
G01 X39.7700 Y3.8992
G01 X39.7385 Y3.9184
G01 X39.7278 Y3.9258
G01 X39.6983 Y3.9480
G01 X39.6884 Y3.9565
G01 X39.6612 Y3.9814
G01 X39.6532 Y3.9897
G01 X39.6340 Y4.0109
G01 X39.6255 Y4.0208
G01 X39.6033 Y4.0503
G01 X39.5959 Y4.0610
G01 X39.5767 Y4.0925
G01 X39.5691 Y4.1062
G01 X39.5537 Y4.1386
G01 X39.5481 Y4.1516
G01 X39.5351 Y4.1878
G01 X39.5298 Y4.2058
G01 X39.5229 Y4.2335
G01 X39.5204 Y4.2447
G01 X39.5148 Y4.2812
G01 X39.5128 Y4.2999
G01 X39.5111 Y4.3326
G01 X39.5109 Y5.5925
G01 X39.5112 Y5.6040
G01 X39.5132 Y5.6409
G01 X39.5146 Y5.6523
G01 X39.5190 Y5.6821
G01 X39.5223 Y5.6990
G01 X39.5298 Y5.7292
G01 X39.5359 Y5.7497
G01 X39.5461 Y5.7781
G01 X39.5503 Y5.7888
G01 X39.5659 Y5.8222
G01 X39.5718 Y5.8339
G01 X39.5959 Y5.8740
G01 X39.6024 Y5.8835
G01 X39.6206 Y5.9079
G01 X39.5995 Y5.9047
G01 X39.5881 Y5.9038
G01 X39.5760 Y5.9034
G01 X39.5291 Y5.8289
G01 X39.4888 Y5.7138
G01 X39.4786 Y5.6229
G01 X39.4786 Y4.3121
G01 X39.4888 Y4.2213
G01 X39.5083 Y4.1656
G01 X39.5140 Y4.1453
G01 X39.5213 Y4.1130
G01 X39.5237 Y4.0997
G01 X39.5264 Y4.0774
G01 X39.5273 Y4.0595
G01 X39.5271 Y4.0443
G01 X39.5259 Y4.0297
G01 X39.5159 Y3.9601
G01 X39.5123 Y3.9410
G01 X39.5068 Y3.9211
G01 X39.5000 Y3.9028
G01 X39.4918 Y3.8853
G01 X39.4836 Y3.8707
G01 X39.4728 Y3.8546
G01 X39.4651 Y3.8446
G01 X39.4163 Y3.7851
G01 X39.4031 Y3.7711
G01 X39.3884 Y3.7579
G01 X39.3751 Y3.7478
G01 X39.3554 Y3.7344
G01 X39.3246 Y3.7160
G01 X39.3057 Y3.7064
G01 X39.2925 Y3.7005
G01 X39.1113 Y3.6082
G01 X38.9500 Y3.4910
G01 X38.8090 Y3.3500
G01 X38.6919 Y3.1888
G01 X38.6014 Y3.0112
G01 X38.5398 Y2.8216
G01 X38.5086 Y2.6247
G01 X38.5086 Y2.4253
G01 X38.5398 Y2.2285
G01 X38.6014 Y2.0389
G01 X38.6919 Y1.8613
G01 X38.8090 Y1.7000
G01 X38.9500 Y1.5590
G01 X39.1113 Y1.4419
G01 X39.2889 Y1.3514
G01 X39.4785 Y1.2898
G01 X39.6753 Y1.2586
G01 X39.8747 Y1.2586
G01 X40.0716 Y1.2898
G01 X40.2612 Y1.3514
G01 X40.4388 Y1.4419
G01 X40.6000 Y1.5590
G01 X40.6778 Y1.6368
G01 X40.6888 Y1.6467
G01 X40.6978 Y1.6540
G01 X40.7072 Y1.6608
G01 X40.7169 Y1.6672
G01 X40.7736 Y1.7009
G01 X40.7903 Y1.7099
G01 X40.8087 Y1.7179
G01 X40.8226 Y1.7228
G01 X40.8538 Y1.7320
G01 X40.8671 Y1.7354
G01 X40.8780 Y1.7376
G01 X40.9270 Y1.7446
G01 X40.9406 Y1.7457
G01 X40.9532 Y1.7461
G01 X44.2631 Y1.7461
G01 X44.3285 Y1.7528
G01 X44.4447 Y1.7913
G01 X44.5475 Y1.8547
G01 X44.6329 Y1.9400
G01 X44.6962 Y2.0428
G01 X44.7347 Y2.1590
G01 X44.7414 Y2.2244
G01 X44.7414 Y2.8254
G01 X44.7344 Y2.8924
G01 X44.6962 Y3.0072
G01 X44.6329 Y3.1100
G01 X44.5680 Y3.1749
G01 X44.5563 Y3.1874
G01 X44.5336 Y3.2154
G01 X44.5255 Y3.2262
G01 X44.5135 Y3.2446
G01 X44.5048 Y3.2599
G01 X44.4974 Y3.2757
G01 X44.4919 Y3.2896
G01 X44.4712 Y3.3518
G01 X44.4674 Y3.3646
G01 X44.4640 Y3.3785
G01 X44.4611 Y3.3959
G01 X44.4594 Y3.4149
G01 X44.4591 Y3.4316
G01 X44.4603 Y3.4513
G01 X44.4626 Y3.4679
G01 X44.4802 Y3.5495
G01 X44.4839 Y3.5632
G01 X44.4882 Y3.5762
G01 X44.4923 Y3.5866
G01 X44.4981 Y3.5995
G01 X44.5120 Y3.6253
G01 X44.5208 Y3.6395
G01 X44.5281 Y3.6498
G01 X44.5552 Y3.6856
G01 X44.5624 Y3.6941
G01 X44.5701 Y3.7022
G01 X44.6329 Y3.7650
G01 X44.6962 Y3.8678
G01 X44.7347 Y3.9840
G01 X44.7414 Y4.0494
G01 X44.7414 Y4.6506
G01 X44.7347 Y4.7160
G01 X44.7028 Y4.8129
G01 X44.6991 Y4.8269
G01 X44.6924 Y4.8569
G01 X44.6899 Y4.8716
G01 X44.6879 Y4.8892
G01 X44.6871 Y4.9032
G01 X44.6871 Y4.9177
G01 X44.6886 Y4.9373
G01 X44.6976 Y5.0079
G01 X44.7018 Y5.0277
G01 X44.7049 Y5.0387
G01 X44.7086 Y5.0495
G01 X44.7140 Y5.0631
G01 X44.7200 Y5.0759
G01 X44.7456 Y5.1217
G01 X44.7519 Y5.1317
G01 X44.7588 Y5.1413
G01 X44.7661 Y5.1505
G01 X44.7757 Y5.1614
G01 X44.7863 Y5.1720
G01 X44.7954 Y5.1800
G01 X44.8033 Y5.1885
G01 X44.8116 Y5.1967
G01 X44.8203 Y5.2044
G01 X44.8319 Y5.2136
G01 X44.8414 Y5.2203
G01 X44.8535 Y5.2278
G01 X44.8665 Y5.2348
G01 X44.8772 Y5.2398
G01 X44.8873 Y5.2459
G01 X44.8975 Y5.2514
G01 X44.9080 Y5.2563
G01 X44.9218 Y5.2618
G01 X44.9328 Y5.2656
G01 X44.9439 Y5.2688
G01 X44.9579 Y5.2719
G01 X44.9725 Y5.2743
G01 X44.9827 Y5.2769
G01 X44.9936 Y5.2792
G01 X45.0046 Y5.2811
G01 X45.0187 Y5.2826
G01 X45.0570 Y5.2847
G01 X45.0955 Y5.2837
G01 X45.1070 Y5.2827
G01 X45.2093 Y5.2711
G01 X46.5204 Y5.2711
G01 X46.6113 Y5.2813
G01 X46.7264 Y5.3216
G01 X46.8297 Y5.3865
G01 X46.9160 Y5.4728
G01 X46.9809 Y5.5761
G01 X47.0212 Y5.6913
G01 X47.0314 Y5.7821
G01 X47.0316 Y6.1777
G01 X47.0326 Y6.1930
G01 X47.0366 Y6.2290
G01 X47.0396 Y6.2458
G01 X47.0445 Y6.2663
G01 X47.0498 Y6.2830
G01 X47.0564 Y6.2993
G01 X47.0888 Y6.3646
G01 X47.0957 Y6.3772
G01 X47.1019 Y6.3871
G01 X47.1105 Y6.3993
G01 X47.1178 Y6.4085
G01 X47.1274 Y6.4194
G01 X47.1354 Y6.4276
G01 X47.1460 Y6.4373
G01 X47.1569 Y6.4461
G01 X47.1708 Y6.4559
G01 X47.2369 Y6.4982
G01 X47.2538 Y6.5075
G01 X47.2718 Y6.5155
G01 X47.2876 Y6.5210
G01 X47.3133 Y6.5285
G01 X47.3321 Y6.5326
G01 X47.3740 Y6.5387
G01 X47.3866 Y6.5402
G01 X47.4003 Y6.5410
G01 X48.8703 Y6.5411
G01 X48.8882 Y6.5430
G01 X48.9640 Y6.5713
G01 X49.0253 Y6.6172
G01 X49.0712 Y6.6785
G01 X49.0995 Y6.7543
G01 X49.1014 Y6.7722
G01 X49.1014 Y7.9429
G01 X49.0995 Y7.9607
G01 X49.0712 Y8.0365
G01 X49.0253 Y8.0978
G01 X48.9640 Y8.1437
G01 X48.8882 Y8.1720
G01 X48.8703 Y8.1739
G01 X46.9997 Y8.1739
G01 X46.9818 Y8.1720
G01 X46.9060 Y8.1437
G01 X46.8447 Y8.0978
G01 X46.7909 Y8.0260
G01 X46.7729 Y8.0049
G01 X46.7573 Y7.9883
G01 X46.7452 Y7.9768
G01 X46.7324 Y7.9661
G01 X46.7189 Y7.9563
G01 X46.7055 Y7.9480
G01 X46.6550 Y7.9192
G01 X46.6458 Y7.9143
G01 X46.6349 Y7.9090
G01 X46.6207 Y7.9032
G01 X46.6093 Y7.8993
G01 X46.5794 Y7.8905
G01 X46.5656 Y7.8872
G01 X46.5521 Y7.8847
G01 X46.5117 Y7.8790
G01 X46.4977 Y7.8776
G01 X46.4842 Y7.8771
G01 X45.5874 Y7.8771
G01 X45.5739 Y7.8774
G01 X45.5585 Y7.8783
G01 X45.5442 Y7.8801
G01 X45.5306 Y7.8827
G01 X45.5167 Y7.8862
G01 X45.5020 Y7.8908
G01 X45.4362 Y7.9143
G01 X45.4214 Y7.9201
G01 X45.4109 Y7.9250
G01 X45.3978 Y7.9319
G01 X45.3857 Y7.9394
G01 X45.3762 Y7.9461
G01 X45.3670 Y7.9532
G01 X45.3581 Y7.9607
G01 X45.3474 Y7.9710
G01 X45.3395 Y7.9795
G01 X45.3294 Y7.9917
G01 X45.2867 Y8.0470
G01 X45.2789 Y8.0576
G01 X45.2726 Y8.0674
G01 X45.2655 Y8.0797
G01 X45.2589 Y8.0930
G01 X45.2534 Y8.1062
G01 X45.2485 Y8.1201
G01 X45.2453 Y8.1313
G01 X45.2427 Y8.1426
G01 X45.2402 Y8.1567
G01 X45.2387 Y8.1698
G01 X45.2326 Y8.2394
G01 X45.2318 Y8.2611
G01 X45.2321 Y8.2727
G01 X45.2331 Y8.2843
G01 X45.2346 Y8.2958
G01 X45.2366 Y8.3072
G01 X45.2417 Y8.3272
G01 X45.2453 Y8.3383
G01 X45.2495 Y8.3491
G01 X45.2580 Y8.3673
G01 X45.2946 Y8.4368
G01 X45.3048 Y8.4531
G01 X45.3166 Y8.4690
G01 X45.3303 Y8.4845
G01 X46.0266 Y9.2024
G01 X46.0914 Y9.2918
G01 X46.1083 Y9.3240
G01 X46.1254 Y9.3718
G01 X46.1309 Y9.3856
G01 X46.1356 Y9.3961
G01 X46.1451 Y9.4141
G01 X46.1512 Y9.4239
G01 X46.1577 Y9.4334
G01 X46.1663 Y9.4446
G01 X46.2121 Y9.4994
G01 X46.2267 Y9.5154
G01 X46.2396 Y9.5272
G01 X46.2532 Y9.5381
G01 X46.2676 Y9.5479
G01 X46.2828 Y9.5565
G01 X46.2985 Y9.5641
G01 X46.3147 Y9.5704
G01 X46.3884 Y9.5937
G01 X46.4037 Y9.5979
G01 X46.4208 Y9.6014
G01 X46.4381 Y9.6035
G01 X46.4555 Y9.6044
G01 X46.4761 Y9.6038
G01 X46.4934 Y9.6018
G01 X46.5131 Y9.5980
G01 X46.5891 Y9.5773
G01 X46.6050 Y9.5722
G01 X46.6229 Y9.5650
G01 X46.6405 Y9.5560
G01 X46.7053 Y9.5163
G01 X46.8215 Y9.4778
G01 X46.8869 Y9.4711
G01 X47.4881 Y9.4711
G01 X47.5535 Y9.4778
G01 X47.6697 Y9.5163
G01 X47.7725 Y9.5797
G01 X47.8579 Y9.6650
G01 X47.9212 Y9.7678
G01 X47.9597 Y9.8840
G01 X47.9664 Y9.9494
G01 X47.9667 Y9.9839
G01 X47.9675 Y9.9955
G01 X47.9688 Y10.0071
G01 X47.9727 Y10.0275
G01 X47.9893 Y10.0926
G01 X47.9952 Y10.1119
G01 X47.9995 Y10.1228
G01 X48.0042 Y10.1335
G01 X48.0095 Y10.1440
G01 X48.0236 Y10.1698
G01 X48.0336 Y10.1862
G01 X48.0409 Y10.1965
G01 X48.0645 Y10.2280
G01 X48.0735 Y10.2390
G01 X48.0829 Y10.2490
G01 X48.6203 Y10.7864
G01 X48.7042 Y10.9120
G01 X48.7620 Y11.0515
G01 X48.7914 Y11.1995
G01 X48.7914 Y14.4388
G01 X48.7917 Y14.4507
G01 X48.7927 Y14.4635
G01 X48.7964 Y14.4962
G01 X48.7990 Y14.5117
G01 X48.8048 Y14.5367
G01 X48.8113 Y14.5568
G01 X48.8157 Y14.5679
G01 X48.8208 Y14.5787
G01 X48.8514 Y14.6380
G01 X48.8594 Y14.6522
G01 X48.8678 Y14.6649
G01 X48.8749 Y14.6745
G01 X48.8843 Y14.6858
G01 X48.9012 Y14.7045
G01 X48.9130 Y14.7163
G01 X48.9225 Y14.7247
G01 X48.9508 Y14.7483
G01 X48.9595 Y14.7552
G01 X48.9733 Y14.7647
G01 X48.9975 Y14.7797
G01 X49.0829 Y14.8650
G01 X49.1462 Y14.9678
G01 X49.1847 Y15.0840
G01 X49.1914 Y15.1494
G01 X49.1914 Y18.2254
G01 X49.1844 Y18.2924
G01 X49.1462 Y18.4072
G01 X49.0829 Y18.5100
G01 X48.9975 Y18.5954
G01 X48.8947 Y18.6587
G01 X48.7785 Y18.6973
G01 X48.7131 Y18.7039
G01 X47.3369 Y18.7039
G01 X47.2715 Y18.6973
G01 X47.1553 Y18.6587
G01 X47.0525 Y18.5954
G01 X46.9672 Y18.5100
G01 X46.9038 Y18.4072
G01 X46.8653 Y18.2910
G01 X46.8586 Y18.2256
G01 X46.8586 Y17.8236
G01 X46.8577 Y17.8049
G01 X46.8534 Y17.7661
G01 X46.8508 Y17.7509
G01 X46.8464 Y17.7318
G01 X46.8422 Y17.7176
G01 X46.8372 Y17.7041
G01 X46.8300 Y17.6880
G01 X46.8019 Y17.6317
G01 X46.7912 Y17.6127
G01 X46.7795 Y17.5956
G01 X46.7670 Y17.5804
G01 X46.7541 Y17.5670
G01 X46.7395 Y17.5539
G01 X46.7305 Y17.5470
G01 X46.7194 Y17.5392
G01 X46.6579 Y17.4997
G01 X46.6435 Y17.4913
G01 X46.6285 Y17.4839
G01 X46.6130 Y17.4776
G01 X46.6000 Y17.4733
G01 X46.5743 Y17.4659
G01 X46.5634 Y17.4635
G01 X46.5510 Y17.4613
G01 X46.5120 Y17.4558
G01 X46.4924 Y17.4541
G01 X45.6453 Y17.4540
G01 X45.6327 Y17.4546
G01 X45.6094 Y17.4564
G01 X45.5894 Y17.4591
G01 X45.5780 Y17.4613
G01 X45.5667 Y17.4641
G01 X45.5556 Y17.4674
G01 X45.5447 Y17.4713
G01 X45.4885 Y17.4940
G01 X45.4726 Y17.5012
G01 X45.4624 Y17.5066
G01 X45.4525 Y17.5126
G01 X45.4390 Y17.5216
G01 X45.4291 Y17.5290
G01 X45.4202 Y17.5363
G01 X45.4116 Y17.5441
G01 X45.3974 Y17.5589
G01 X45.3412 Y17.6286
G01 X45.3301 Y17.6451
G01 X45.3206 Y17.6619
G01 X45.3146 Y17.6747
G01 X45.3036 Y17.7017
G01 X45.2976 Y17.7205
G01 X45.2875 Y17.7601
G01 X45.2841 Y17.7764
G01 X45.2820 Y17.7907
G01 X45.2537 Y17.8665
G01 X45.2078 Y17.9278
G01 X45.1465 Y17.9737
G01 X45.0707 Y18.0020
G01 X45.0528 Y18.0039
G01 X43.1611 Y18.0039
G01 X43.1423 Y18.0048
G01 X43.1007 Y18.0095
G01 X43.0750 Y18.0147
G01 X43.0637 Y18.0177
G01 X43.0525 Y18.0212
G01 X43.0416 Y18.0253
G01 X43.0279 Y18.0313
G01 X42.9692 Y18.0607
G01 X42.9575 Y18.0670
G01 X42.9453 Y18.0745
G01 X42.9332 Y18.0830
G01 X42.9220 Y18.0920
G01 X42.9120 Y18.1010
G01 X42.9022 Y18.1108
G01 X42.8927 Y18.1215
G01 X42.8842 Y18.1324
G01 X42.8766 Y18.1434
G01 X42.8330 Y18.2116
G01 X42.8237 Y18.2290
G01 X42.8162 Y18.2467
G01 X42.8115 Y18.2601
G01 X42.8059 Y18.2789
G01 X42.8010 Y18.2991
G01 X42.7988 Y18.3116
G01 X42.7933 Y18.3505
G01 X42.7916 Y18.3702
G01 X42.7914 Y18.7872
G01 X42.7603 Y18.9841
G01 X42.6987 Y19.1736
G01 X42.6081 Y19.3513
G01 X42.4910 Y19.5125
G01 X40.9500 Y21.0535
G01 X40.7888 Y21.1707
G01 X40.6112 Y21.2611
G01 X40.4216 Y21.3228
G01 X40.2247 Y21.3539
G01 X37.0454 Y21.3539
G01 X37.0318 Y21.3543
G01 X37.0171 Y21.3557
G01 X36.9720 Y21.3625
G01 X36.9585 Y21.3650
G01 X36.9385 Y21.3703
G01 X36.9211 Y21.3759
G01 X36.9077 Y21.3808
G01 X36.8952 Y21.3863
G01 X36.8853 Y21.3914
G01 X36.8756 Y21.3968
G01 X36.8650 Y21.4036
G01 X36.8036 Y21.4451
G01 X36.7942 Y21.4520
G01 X36.7852 Y21.4594
G01 X36.7725 Y21.4712
G01 X36.7606 Y21.4840
G01 X36.7497 Y21.4976
G01 X36.7399 Y21.5120
G01 X36.7324 Y21.5248
G01 X36.7246 Y21.5404
G01 X36.6917 Y21.6174
G01 X36.6871 Y21.6308
G01 X36.6833 Y21.6439
G01 X36.6803 Y21.6578
G01 X36.6780 Y21.6728
G01 X36.6756 Y21.6936
G01 X36.6747 Y21.7103
G01 X36.6755 Y21.7552
G01 X36.6761 Y21.7678
G01 X36.6783 Y21.7869
G01 X36.6944 Y21.8830
G01 X36.6841 Y21.9605
G01 X36.6531 Y22.0305
G01 X36.6035 Y22.0889
G01 X36.5396 Y22.1311
G01 X36.4648 Y22.1539
G01 X34.0852 Y22.1539
G01 X34.0105 Y22.1311
G01 X33.9465 Y22.0889
G01 X33.8970 Y22.0305
G01 X33.8659 Y21.9605
G01 X33.8557 Y21.8830
G01 X33.8716 Y21.7873
G01 X33.8737 Y21.7711
G01 X33.8747 Y21.7558
G01 X33.8752 Y21.7133
G01 X33.8751 Y21.7030
G01 X33.8744 Y21.6910
G01 X33.8708 Y21.6635
G01 X33.8678 Y21.6470
G01 X33.8644 Y21.6338
G01 X33.8536 Y21.5969
G01 X33.8490 Y21.5832
G01 X33.8433 Y21.5693
G01 X33.8370 Y21.5563
G01 X33.8297 Y21.5432
G01 X33.8233 Y21.5332
G01 X33.8163 Y21.5234
G01 X33.8104 Y21.5132
G01 X33.8023 Y21.5008
G01 X33.7955 Y21.4915
G01 X33.7864 Y21.4804
G01 X33.7763 Y21.4696
G01 X33.7679 Y21.4616
G01 X33.7591 Y21.4540
G01 X33.7499 Y21.4468
G01 X33.7391 Y21.4365
G01 X33.7281 Y21.4274
G01 X33.7162 Y21.4186
G01 X33.7064 Y21.4123
G01 X33.6964 Y21.4065
G01 X33.6837 Y21.4000
G01 X33.6646 Y21.3920
G01 X33.6502 Y21.3847
G01 X33.6372 Y21.3791
G01 X33.6243 Y21.3745
G01 X33.6042 Y21.3684
G01 X33.5865 Y21.3640
G01 X33.5716 Y21.3613
G01 X33.5296 Y21.3554
G01 X33.5160 Y21.3543
G01 X33.5033 Y21.3539
G01 X31.3655 Y21.3539
G01 X31.3508 Y21.3544
G01 X31.3348 Y21.3560
G01 X31.2958 Y21.3614
G01 X31.2771 Y21.3651
G01 X31.2443 Y21.3744
G01 X31.2331 Y21.3784
G01 X31.2191 Y21.3844
G01 X31.2084 Y21.3897
G01 X31.1980 Y21.3956
G01 X31.1295 Y21.4382
G01 X31.1198 Y21.4450
G01 X31.1104 Y21.4524
G01 X31.0951 Y21.4662
G01 X31.0738 Y21.4893
G01 X31.0631 Y21.5021
G01 X31.0551 Y21.5132
G01 X31.0322 Y21.5472
G01 X31.0219 Y21.5648
G01 X31.0118 Y21.5855
G01 X30.8763 Y21.8011
G01 X30.7176 Y22.0001
G01 X30.5376 Y22.1801
G01 X30.3386 Y22.3388
G01 X30.1230 Y22.4743
G01 X29.8937 Y22.5847
G01 X29.6534 Y22.6688
G01 X29.4052 Y22.7254
G01 X29.1523 Y22.7539
G01 X28.8977 Y22.7539
G01 X28.6448 Y22.7254
G01 X28.3966 Y22.6688
G01 X28.1563 Y22.5847
G01 X27.9268 Y22.4741
G01 X27.7114 Y22.3388
G01 X27.5124 Y22.1801
G01 X27.3932 Y22.0611
G01 X27.3845 Y22.0533
G01 X27.3755 Y22.0460
G01 X27.3661 Y22.0392
G01 X27.3564 Y22.0328
G01 X27.2932 Y21.9954
G01 X27.2776 Y21.9876
G01 X27.2613 Y21.9809
G01 X27.2462 Y21.9759
G01 X27.2171 Y21.9673
G01 X27.2063 Y21.9646
G01 X27.1898 Y21.9616
G01 X27.1430 Y21.9551
G01 X27.1310 Y21.9542
G01 X27.1201 Y21.9539
G01 X22.3218 Y21.9539
G01 X22.3041 Y21.9546
G01 X22.2879 Y21.9564
G01 X22.2748 Y21.9587
G01 X22.2187 Y21.9706
G01 X22.2011 Y21.9754
G01 X22.1839 Y21.9816
G01 X22.1612 Y21.9916
G01 X22.1442 Y22.0007
